vendor/animastage-standalone/lut/anime-dramatic.3dl
0 3 6 9 12 15
0 0 0
0 0 899
0 0 2023
0 0 3147
0 0 4095
0 0 4095
0 665 0
0 650 752
0 635 1876
0 620 3001
0 605 4095
0 590 4095
0 1657 0
0 1642 605
0 1627 1729
0 1612 2854
0 1597 3978
0 1583 4095
0 2649 0
0 2634 458
0 2619 1583
0 2604 2707
0 2590 3831
0 2575 4095
0 3641 0
0 3626 311
0 3611 1436
0 3597 2560
0 3582 3684
0 3567 4095
0 4095 0
0 4095 164
0 4095 1289
0 4095 2413
0 4095 3537
0 4095 4095
932 0 0
917 0 855
902 0 1980
887 0 3104
872 0 4095
857 0 4095
785 621 0
770 606 708
755 591 1833
740 576 2957
725 562 4081
711 547 4095
638 1613 0
623 1598 562
608 1583 1686
593 1569 2810
578 1554 3934
564 1539 4095
491 2605 0
476 2590 415
461 2576 1539
446 2561 2663
432 2546 3787
417 2531 4095
344 3597 0
329 3583 268
314 3568 1392
299 3553 2516
285 3538 3640
270 3523 4095
197 4095 0
182 4095 121
167 4095 1245
153 4095 2369
138 4095 3494
123 4095 4095
2027 0 0
2012 0 812
1997 0 1936
1983 0 3060
1968 0 4095
1953 0 4095
1880 577 0
1865 562 665
1850 548 1789
1836 533 2913
1821 518 4037
1806 503 4095
1733 1569 0
1718 1555 518
1704 1540 1642
1689 1525 2766
1674 1510 3891
1659 1495 4095
1586 2562 0
1571 2547 371
1557 2532 1495
1542 2517 2619
1527 2502 3744
1512 2487 4095
1439 3554 0
1425 3539 224
1410 3524 1348
1395 3509 2473
1380 3494 3597
1365 3480 4095
1292 4095 0
1278 4095 77
1263 4095 1201
1248 4095 2326
1233 4095 3450
1218 4095 4095
3122 0 0
3108 0 768
3093 0 1892
3078 0 3016
3063 0 4095
3048 0 4095
2975 534 0
2961 519 621
2946 504 1745
2931 489 2870
2916 474 3994
2901 459 4095
2829 1526 0
2814 1511 474
2799 1496 1598
2784 1481 2723
2769 1466 3847
2754 1452 4095
2682 2518 0
2667 2503 327
2652 2488 1452
2637 2473 2576
2622 2459 3700
2608 2444 4095
2535 3510 0
2520 3495 180
2505 3480 1305
2490 3466 2429
2475 3451 3553
2461 3436 4095
2388 4095 0
2373 4095 33
2358 4095 1158
2343 4095 2282
2329 4095 3406
2314 4095 4095
4095 0 0
4095 0 724
4095 0 1849
4095 0 2973
4095 0 4095
4095 0 4095
4071 490 0
4056 475 577
4041 460 1702
4026 445 2826
4012 431 3950
3997 416 4095
3924 1482 0
3909 1467 431
3894 1452 1555
3879 1438 2679
3865 1423 3803
3850 1408 4095
3777 2474 0
3762 2459 284
3747 2445 1408
3733 2430 2532
3718 2415 3656
3703 2400 4095
3630 3466 0
3615 3452 137
3601 3437 1261
3586 3422 2385
3571 3407 3509
3556 3392 4095
3483 4095 0
3468 4095 0
3454 4095 1114
3439 4095 2238
3424 4095 3363
3409 4095 4095
4095 0 0
4095 0 681
4095 0 1805
4095 0 2929
4095 0 4053
4095 0 4095
4095 446 0
4095 431 534
4095 417 1658
4095 402 2782
4095 387 3906
4095 372 4095
4095 1438 0
4095 1424 387
4095 1409 1511
4095 1394 2635
4095 1379 3760
4095 1364 4095
4095 2431 0
4095 2416 240
4095 2401 1364
4095 2386 2488
4095 2371 3613
4095 2356 4095
4095 3423 0
4095 3408 93
4095 3393 1217
4095 3378 2342
4095 3363 3466
4095 3349 4095
4095 4095 0
4095 4095 0
4095 4095 1070
4095 4095 2195
4095 4095 3319
4095 4095 4095
