vendor/animastage-standalone/lut/anime-soft.3dl
0 3 6 9 12 15
82 0 0
73 0 758
65 0 1720
56 0 2682
47 0 3645
39 0 4095
0 865 0
0 857 672
0 848 1635
0 839 2597
0 831 3560
0 822 4095
0 1751 0
0 1742 587
0 1734 1549
0 1725 2512
0 1717 3474
0 1708 4095
0 2637 0
0 2628 502
0 2619 1464
0 2611 2427
0 2602 3389
0 2594 4095
0 3522 0
0 3514 417
0 3505 1379
0 3497 2341
0 3488 3304
0 3479 4095
0 4095 0
0 4095 331
0 4095 1294
0 4095 2256
0 4095 3218
0 4095 4095
1028 0 0
1019 0 732
1010 0 1695
1002 0 2657
993 0 3619
985 0 4095
942 840 0
934 831 647
925 823 1609
916 814 2572
908 805 3534
899 797 4095
857 1726 0
848 1717 562
840 1708 1524
831 1700 2487
823 1691 3449
814 1683 4095
772 2611 0
763 2603 476
754 2594 1439
746 2586 2401
737 2577 3364
729 2568 4095
686 3497 0
678 3488 391
669 3480 1354
661 3471 2316
652 3463 3278
643 3454 4095
601 4095 0
593 4095 306
584 4095 1268
575 4095 2231
567 4095 3193
558 4095 4095
1973 0 0
1965 0 707
1956 0 1669
1947 0 2632
1939 0 3594
1930 0 4095
1888 815 0
1879 806 622
1871 797 1584
1862 789 2546
1853 780 3509
1845 771 4095
1803 1700 0
1794 1692 536
1785 1683 1499
1777 1674 2461
1768 1666 3424
1760 1657 4095
1717 2586 0
1709 2577 451
1700 2569 1413
1692 2560 2376
1683 2552 3338
1674 2543 4095
1632 3472 0
1623 3463 366
1615 3454 1328
1606 3446 2291
1598 3437 3253
1589 3429 4095
1547 4095 0
1538 4095 281
1530 4095 1243
1521 4095 2205
1512 4095 3168
1504 4095 4095
2919 0 0
2910 0 682
2902 0 1644
2893 0 2606
2884 0 3569
2876 0 4095
2834 789 0
2825 781 596
2816 772 1559
2808 763 2521
2799 755 3483
2791 746 4095
2748 1675 0
2740 1666 511
2731 1658 1473
2722 1649 2436
2714 1640 3398
2705 1632 4095
2663 2561 0
2654 2552 426
2646 2543 1388
2637 2535 2351
2629 2526 3313
2620 2518 4095
2578 3446 0
2569 3438 340
2561 3429 1303
2552 3421 2265
2543 3412 3228
2535 3403 4095
2492 4095 0
2484 4095 255
2475 4095 1218
2467 4095 2180
2458 4095 3142
2449 4095 4095
3865 0 0
3856 0 656
3847 0 1619
3839 0 2581
3830 0 3543
3821 0 4095
3779 764 0
3771 755 571
3762 747 1533
3753 738 2496
3745 729 3458
3736 721 4095
3694 1650 0
3685 1641 486
3677 1632 1448
3668 1624 2410
3660 1615 3373
3651 1607 4095
3609 2535 0
3600 2527 400
3591 2518 1363
3583 2509 2325
3574 2501 3288
3566 2492 4095
3523 3421 0
3515 3412 315
3506 3404 1277
3498 3395 2240
3489 3387 3202
3480 3378 4095
3438 4095 0
3429 4095 230
3421 4095 1192
3412 4095 2155
3404 4095 3117
3395 4095 4079
4095 0 0
4095 0 631
4095 0 1593
4095 0 2556
4095 0 3518
4095 0 4095
4095 738 0
4095 730 546
4095 721 1508
4095 713 2470
4095 704 3433
4095 695 4095
4095 1624 0
4095 1616 460
4095 1607 1423
4095 1598 2385
4095 1590 3348
4095 1581 4095
4095 2510 0
4095 2501 375
4095 2493 1337
4095 2484 2300
4095 2475 3262
4095 2467 4095
4095 3396 0
4095 3387 290
4095 3378 1252
4095 3370 2215
4095 3361 3177
4095 3353 4095
4095 4095 0
4095 4095 204
4095 4095 1167
4095 4095 2129
4095 4095 3092
4095 4095 4054
