vendor/animastage-standalone/lut/anime-dramatic.3dl
0 1 2 3 4 5 6 7 8 9 10 11 12 13 14 15
0 0 0
0 0 150
0 0 524
0 0 899
0 0 1274
0 0 1648
0 0 2023
0 0 2398
0 0 2773
0 0 3147
0 0 3522
0 0 3897
0 0 4095
0 0 4095
0 0 4095
0 0 4095
0 3 0
0 0 101
0 0 475
0 0 850
0 0 1225
0 0 1600
0 0 1974
0 0 2349
0 0 2724
0 0 3099
0 0 3473
0 0 3848
0 0 4095
0 0 4095
0 0 4095
0 0 4095
0 334 0
0 329 52
0 324 426
0 319 801
0 314 1176
0 309 1551
0 304 1925
0 299 2300
0 294 2675
0 289 3050
0 284 3424
0 279 3799
0 275 4095
0 270 4095
0 265 4095
0 260 4095
0 665 0
0 660 3
0 655 377
0 650 752
0 645 1127
0 640 1502
0 635 1876
0 630 2251
0 625 2626
0 620 3001
0 615 3375
0 610 3750
0 605 4095
0 600 4095
0 595 4095
0 590 4095
0 995 0
0 990 0
0 985 328
0 980 703
0 976 1078
0 971 1453
0 966 1827
0 961 2202
0 956 2577
0 951 2952
0 946 3326
0 941 3701
0 936 4076
0 931 4095
0 926 4095
0 921 4095
0 1326 0
0 1321 0
0 1316 279
0 1311 654
0 1306 1029
0 1301 1404
0 1296 1778
0 1291 2153
0 1286 2528
0 1282 2903
0 1277 3277
0 1272 3652
0 1267 4027
0 1262 4095
0 1257 4095
0 1252 4095
0 1657 0
0 1652 0
0 1647 230
0 1642 605
0 1637 980
0 1632 1355
0 1627 1729
0 1622 2104
0 1617 2479
0 1612 2854
0 1607 3228
0 1602 3603
0 1597 3978
0 1592 4095
0 1588 4095
0 1583 4095
0 1987 0
0 1982 0
0 1978 181
0 1973 556
0 1968 931
0 1963 1306
0 1958 1680
0 1953 2055
0 1948 2430
0 1943 2805
0 1938 3179
0 1933 3554
0 1928 3929
0 1923 4095
0 1918 4095
0 1913 4095
0 2318 0
0 2313 0
0 2308 133
0 2303 507
0 2298 882
0 2293 1257
0 2288 1631
0 2284 2006
0 2279 2381
0 2274 2756
0 2269 3130
0 2264 3505
0 2259 3880
0 2254 4095
0 2249 4095
0 2244 4095
0 2649 0
0 2644 0
0 2639 84
0 2634 458
0 2629 833
0 2624 1208
0 2619 1583
0 2614 1957
0 2609 2332
0 2604 2707
0 2599 3082
0 2595 3456
0 2590 3831
0 2585 4095
0 2580 4095
0 2575 4095
0 2980 0
0 2975 0
0 2970 35
0 2965 409
0 2960 784
0 2955 1159
0 2950 1534
0 2945 1908
0 2940 2283
0 2935 2658
0 2930 3033
0 2925 3407
0 2920 3782
0 2915 4095
0 2910 4095
0 2905 4095
0 3310 0
0 3305 0
0 3300 0
0 3295 360
0 3291 735
0 3286 1110
0 3281 1485
0 3276 1859
0 3271 2234
0 3266 2609
0 3261 2984
0 3256 3358
0 3251 3733
0 3246 4095
0 3241 4095
0 3236 4095
0 3641 0
0 3636 0
0 3631 0
0 3626 311
0 3621 686
0 3616 1061
0 3611 1436
0 3606 1810
0 3601 2185
0 3597 2560
0 3592 2935
0 3587 3309
0 3582 3684
0 3577 4059
0 3572 4095
0 3567 4095
0 3972 0
0 3967 0
0 3962 0
0 3957 262
0 3952 637
0 3947 1012
0 3942 1387
0 3937 1761
0 3932 2136
0 3927 2511
0 3922 2886
0 3917 3260
0 3912 3635
0 3907 4010
0 3903 4095
0 3898 4095
0 4095 0
0 4095 0
0 4095 0
0 4095 213
0 4095 588
0 4095 963
0 4095 1338
0 4095 1712
0 4095 2087
0 4095 2462
0 4095 2837
0 4095 3211
0 4095 3586
0 4095 3961
0 4095 4095
0 4095 4095
0 4095 0
0 4095 0
0 4095 0
0 4095 164
0 4095 539
0 4095 914
0 4095 1289
0 4095 1663
0 4095 2038
0 4095 2413
0 4095 2788
0 4095 3162
0 4095 3537
0 4095 3912
0 4095 4095
0 4095 4095
201 0 0
196 0 135
191 0 510
187 0 884
182 0 1259
177 0 1634
172 0 2009
167 0 2383
162 0 2758
157 0 3133
152 0 3508
147 0 3882
142 0 4095
137 0 4095
132 0 4095
127 0 4095
152 0 0
147 0 86
142 0 461
138 0 835
133 0 1210
128 0 1585
123 0 1960
118 0 2334
113 0 2709
108 0 3084
103 0 3459
98 0 3833
93 0 4095
88 0 4095
83 0 4095
78 0 4095
103 319 0
98 314 37
94 309 412
89 304 787
84 300 1161
79 295 1536
74 290 1911
69 285 2285
64 280 2660
59 275 3035
54 270 3410
49 265 3784
44 260 4095
39 255 4095
34 250 4095
29 245 4095
54 650 0
49 645 0
45 640 363
40 635 738
35 630 1112
30 625 1487
25 620 1862
20 615 2237
15 610 2611
10 606 2986
5 601 3361
0 596 3736
0 591 4095
0 586 4095
0 581 4095
0 576 4095
5 981 0
1 976 0
0 971 314
0 966 689
0 961 1063
0 956 1438
0 951 1813
0 946 2188
0 941 2562
0 936 2937
0 931 3312
0 926 3687
0 921 4061
0 916 4095
0 912 4095
0 907 4095
0 1311 0
0 1306 0
0 1302 265
0 1297 640
0 1292 1014
0 1287 1389
0 1282 1764
0 1277 2139
0 1272 2513
0 1267 2888
0 1262 3263
0 1257 3638
0 1252 4012
0 1247 4095
0 1242 4095
0 1237 4095
0 1642 0
0 1637 0
0 1632 216
0 1627 591
0 1622 965
0 1617 1340
0 1613 1715
0 1608 2090
0 1603 2464
0 1598 2839
0 1593 3214
0 1588 3589
0 1583 3963
0 1578 4095
0 1573 4095
0 1568 4095
0 1973 0
0 1968 0
0 1963 167
0 1958 542
0 1953 916
0 1948 1291
0 1943 1666
0 1938 2041
0 1933 2415
0 1928 2790
0 1923 3165
0 1919 3540
0 1914 3914
0 1909 4095
0 1904 4095
0 1899 4095
0 2304 0
0 2299 0
0 2294 118
0 2289 493
0 2284 867
0 2279 1242
0 2274 1617
0 2269 1992
0 2264 2366
0 2259 2741
0 2254 3116
0 2249 3491
0 2244 3865
0 2239 4095
0 2234 4095
0 2229 4095
0 2634 0
0 2629 0
0 2624 69
0 2619 444
0 2615 818
0 2610 1193
0 2605 1568
0 2600 1943
0 2595 2317
0 2590 2692
0 2585 3067
0 2580 3442
0 2575 3816
0 2570 4095
0 2565 4095
0 2560 4095
0 2965 0
0 2960 0
0 2955 20
0 2950 395
0 2945 770
0 2940 1144
0 2935 1519
0 2930 1894
0 2925 2268
0 2921 2643
0 2916 3018
0 2911 3393
0 2906 3767
0 2901 4095
0 2896 4095
0 2891 4095
0 3296 0
0 3291 0
0 3286 0
0 3281 346
0 3276 721
0 3271 1095
0 3266 1470
0 3261 1845
0 3256 2220
0 3251 2594
0 3246 2969
0 3241 3344
0 3236 3719
0 3231 4093
0 3227 4095
0 3222 4095
0 3626 0
0 3622 0
0 3617 0
0 3612 297
0 3607 672
0 3602 1046
0 3597 1421
0 3592 1796
0 3587 2171
0 3582 2545
0 3577 2920
0 3572 3295
0 3567 3670
0 3562 4044
0 3557 4095
0 3552 4095
0 3957 0
0 3952 0
0 3947 0
0 3942 248
0 3937 623
0 3932 997
0 3928 1372
0 3923 1747
0 3918 2122
0 3913 2496
0 3908 2871
0 3903 3246
0 3898 3621
0 3893 3995
0 3888 4095
0 3883 4095
0 4095 0
0 4095 0
0 4095 0
0 4095 199
0 4095 574
0 4095 948
0 4095 1323
0 4095 1698
0 4095 2073
0 4095 2447
0 4095 2822
0 4095 3197
0 4095 3572
0 4095 3946
0 4095 4095
0 4095 4095
0 4095 0
0 4095 0
0 4095 0
0 4095 150
0 4095 525
0 4095 899
0 4095 1274
0 4095 1649
0 4095 2024
0 4095 2398
0 4095 2773
0 4095 3148
0 4095 3523
0 4095 3897
0 4095 4095
0 4095 4095
566 0 0
562 0 120
557 0 495
552 0 870
547 0 1245
542 0 1619
537 0 1994
532 0 2369
527 0 2744
522 0 3118
517 0 3493
512 0 3868
507 0 4095
502 0 4095
497 0 4095
492 0 4095
517 0 0
513 0 71
508 0 446
503 0 821
498 0 1196
493 0 1570
488 0 1945
483 0 2320
478 0 2695
473 0 3069
468 0 3444
463 0 3819
458 0 4095
453 0 4095
448 0 4095
443 0 4095
469 305 0
464 300 22
459 295 397
454 290 772
449 285 1147
444 280 1521
439 275 1896
434 270 2271
429 265 2646
424 260 3020
419 255 3395
414 250 3770
409 245 4095
404 240 4095
399 236 4095
394 231 4095
420 635 0
415 631 0
410 626 348
405 621 723
400 616 1098
395 611 1472
390 606 1847
385 601 2222
380 596 2597
375 591 2971
370 586 3346
365 581 3721
360 576 4095
355 571 4095
350 566 4095
345 561 4095
371 966 0
366 961 0
361 956 299
356 951 674
351 946 1049
346 941 1424
341 937 1798
336 932 2173
331 927 2548
326 922 2922
321 917 3297
316 912 3672
311 907 4047
306 902 4095
301 897 4095
296 892 4095
322 1297 0
317 1292 0
312 1287 250
307 1282 625
302 1277 1000
297 1272 1375
292 1267 1749
287 1262 2124
282 1257 2499
277 1252 2874
272 1247 3248
267 1243 3623
262 1238 3998
257 1233 4095
252 1228 4095
247 1223 4095
273 1628 0
268 1623 0
263 1618 201
258 1613 576
253 1608 951
248 1603 1326
243 1598 1700
238 1593 2075
233 1588 2450
228 1583 2825
223 1578 3199
218 1573 3574
213 1568 3949
208 1563 4095
203 1558 4095
199 1553 4095
224 1958 0
219 1953 0
214 1948 152
209 1943 527
204 1939 902
199 1934 1277
194 1929 1651
189 1924 2026
184 1919 2401
179 1914 2776
174 1909 3150
169 1904 3525
164 1899 3900
159 1894 4095
154 1889 4095
150 1884 4095
175 2289 0
170 2284 0
165 2279 103
160 2274 478
155 2269 853
150 2264 1228
145 2259 1602
140 2254 1977
135 2249 2352
130 2245 2727
125 2240 3101
120 2235 3476
115 2230 3851
110 2225 4095
106 2220 4095
101 2215 4095
126 2620 0
121 2615 0
116 2610 54
111 2605 429
106 2600 804
101 2595 1179
96 2590 1553
91 2585 1928
86 2580 2303
81 2575 2678
76 2570 3052
71 2565 3427
66 2560 3802
61 2556 4095
57 2551 4095
52 2546 4095
77 2950 0
72 2946 0
67 2941 5
62 2936 380
57 2931 755
52 2926 1130
47 2921 1504
42 2916 1879
37 2911 2254
32 2906 2629
27 2901 3003
22 2896 3378
17 2891 3753
13 2886 4095
8 2881 4095
3 2876 4095
28 3281 0
23 3276 0
18 3271 0
13 3266 331
8 3261 706
3 3256 1081
0 3252 1455
0 3247 1830
0 3242 2205
0 3237 2580
0 3232 2954
0 3227 3329
0 3222 3704
0 3217 4079
0 3212 4095
0 3207 4095
0 3612 0
0 3607 0
0 3602 0
0 3597 282
0 3592 657
0 3587 1032
0 3582 1407
0 3577 1781
0 3572 2156
0 3567 2531
0 3562 2905
0 3558 3280
0 3553 3655
0 3548 4030
0 3543 4095
0 3538 4095
0 3943 0
0 3938 0
0 3933 0
0 3928 233
0 3923 608
0 3918 983
0 3913 1358
0 3908 1732
0 3903 2107
0 3898 2482
0 3893 2857
0 3888 3231
0 3883 3606
0 3878 3981
0 3873 4095
0 3868 4095
0 4095 0
0 4095 0
0 4095 0
0 4095 184
0 4095 559
0 4095 934
0 4095 1309
0 4095 1683
0 4095 2058
0 4095 2433
0 4095 2808
0 4095 3182
0 4095 3557
0 4095 3932
0 4095 4095
0 4095 4095
0 4095 0
0 4095 0
0 4095 0
0 4095 135
0 4095 510
0 4095 885
0 4095 1260
0 4095 1634
0 4095 2009
0 4095 2384
0 4095 2759
0 4095 3133
0 4095 3508
0 4095 3883
0 4095 4095
0 4095 4095
932 0 0
927 0 106
922 0 481
917 0 855
912 0 1230
907 0 1605
902 0 1980
897 0 2354
892 0 2729
887 0 3104
882 0 3479
877 0 3853
872 0 4095
867 0 4095
862 0 4095
857 0 4095
883 0 0
878 0 57
873 0 432
868 0 806
863 0 1181
858 0 1556
853 0 1931
848 0 2305
843 0 2680
838 0 3055
833 0 3430
828 0 3804
823 0 4095
818 0 4095
813 0 4095
808 0 4095
834 290 0
829 285 8
824 280 383
819 275 757
814 270 1132
809 265 1507
804 261 1882
799 256 2256
794 251 2631
789 246 3006
784 241 3381
779 236 3755
774 231 4095
769 226 4095
764 221 4095
760 216 4095
785 621 0
780 616 0
775 611 334
770 606 708
765 601 1083
760 596 1458
755 591 1833
750 586 2207
745 581 2582
740 576 2957
735 571 3332
730 567 3706
725 562 4081
720 557 4095
715 552 4095
711 547 4095
736 952 0
731 947 0
726 942 285
721 937 659
716 932 1034
711 927 1409
706 922 1784
701 917 2158
696 912 2533
691 907 2908
686 902 3283
681 897 3657
676 892 4032
671 887 4095
667 882 4095
662 877 4095
687 1282 0
682 1277 0
677 1272 236
672 1267 610
667 1263 985
662 1258 1360
657 1253 1735
652 1248 2109
647 1243 2484
642 1238 2859
637 1233 3234
632 1228 3608
627 1223 3983
622 1218 4095
618 1213 4095
613 1208 4095
638 1613 0
633 1608 0
628 1603 187
623 1598 562
618 1593 936
613 1588 1311
608 1583 1686
603 1578 2061
598 1574 2435
593 1569 2810
588 1564 3185
583 1559 3559
578 1554 3934
574 1549 4095
569 1544 4095
564 1539 4095
589 1944 0
584 1939 0
579 1934 138
574 1929 513
569 1924 887
564 1919 1262
559 1914 1637
554 1909 2012
549 1904 2386
544 1899 2761
539 1894 3136
534 1889 3511
529 1884 3885
525 1880 4095
520 1875 4095
515 1870 4095
540 2274 0
535 2270 0
530 2265 89
525 2260 464
