vendor/animastage-standalone/lut/anime-cool.3dl
0 3 6 9 12 15
0 0 102
0 0 1042
0 0 1982
0 0 2922
0 0 3861
0 0 4095
0 843 41
0 837 981
0 831 1920
0 825 2860
0 819 3800
0 812 4095
0 1728 0
0 1722 919
0 1716 1859
0 1709 2799
0 1703 3738
0 1697 4095
0 2612 0
0 2606 858
0 2600 1797
0 2594 2737
0 2588 3677
0 2581 4095
0 3497 0
0 3491 796
0 3484 1736
0 3478 2676
0 3472 3615
0 3466 4095
0 4095 0
0 4095 735
0 4095 1674
0 4095 2614
0 4095 3554
0 4095 4095
743 0 84
737 0 1024
731 0 1964
725 0 2903
719 0 3843
712 0 4095
682 825 23
676 819 962
669 813 1902
663 807 2842
657 800 3782
651 794 4095
620 1710 0
614 1703 901
608 1697 1841
602 1691 2780
596 1685 3720
589 1679 4095
559 2594 0
553 2588 839
546 2582 1779
540 2575 2719
534 2569 3659
528 2563 4095
497 3479 0
491 3472 778
485 3466 1718
479 3460 2657
473 3454 3597
466 3447 4095
436 4095 0
430 4095 716
423 4095 1656
417 4095 2596
411 4095 3536
405 4095 4095
1671 0 66
1665 0 1006
1659 0 1945
1652 0 2885
1646 0 3825
1640 0 4095
1610 807 4
1603 801 944
1597 795 1884
1591 788 2824
1585 782 3763
1579 776 4095
1548 1691 0
1542 1685 883
1536 1679 1822
1529 1673 2762
1523 1667 3702
1517 1660 4095
1487 2576 0
1480 2570 821
1474 2563 1761
1468 2557 2701
1462 2551 3640
1455 2545 4095
1425 3460 0
1419 3454 760
1413 3448 1699
1406 3442 2639
1400 3435 3579
1394 3429 4095
1364 4095 0
1357 4095 698
1351 4095 1638
1345 4095 2578
1339 4095 3517
1332 4095 4095
2599 0 48
2593 0 987
2586 0 1927
2580 0 2867
2574 0 3806
2568 0 4095
2537 789 0
2531 782 926
2525 776 1865
2519 770 2805
2512 764 3745
2506 758 4095
2476 1673 0
2469 1667 864
2463 1661 1804
2457 1654 2744
2451 1648 3683
2445 1642 4095
2414 2558 0
2408 2551 803
2402 2545 1742
2396 2539 2682
2389 2533 3622
2383 2526 4095
2353 3442 0
2346 3436 741
2340 3430 1681
2334 3423 2621
2328 3417 3560
2322 3411 4095
2291 4095 0
2285 4095 680
2279 4095 1619
2273 4095 2559
2266 4095 3499
2260 4095 4095
3526 0 29
3520 0 969
3514 0 1909
3508 0 2848
3502 0 3788
3495 0 4095
3465 770 0
3459 764 907
3452 758 1847
3446 752 2787
3440 746 3727
3434 739 4095
3403 1655 0
3397 1649 846
3391 1642 1786
3385 1636 2725
3379 1630 3665
3372 1624 4095
3342 2539 0
3336 2533 784
3329 2527 1724
3323 2521 2664
3317 2514 3604
3311 2508 4095
3280 3424 0
3274 3417 723
3268 3411 1663
3262 3405 2602
3256 3399 3542
3249 3393 4095
3219 4095 0
3213 4095 661
3206 4095 1601
3200 4095 2541
3194 4095 3481
3188 4095 4095
4095 0 11
4095 0 951
4095 0 1890
4095 0 2830
4095 0 3770
4095 0 4095
4095 752 0
4095 746 889
4095 740 1829
4095 733 2769
4095 727 3708
4095 721 4095
4095 1637 0
4095 1630 828
4095 1624 1767
4095 1618 2707
4095 1612 3647
4095 1605 4095
4095 2521 0
4095 2515 766
4095 2509 1706
4095 2502 2646
4095 2496 3585
4095 2490 4095
4095 3405 0
4095 3399 705
4095 3393 1644
4095 3387 2584
4095 3381 3524
4095 3374 4095
4095 4095 0
4095 4095 643
4095 4095 1583
4095 4095 2523
4095 4095 3462
4095 4095 4095
