vendor/animastage-standalone/lut/anime-cool.3dl
0 1 2 3 4 5 6 7 8 9 10 11 12 13 14 15
0 0 102
0 0 416
0 0 729
0 0 1042
0 0 1355
0 0 1669
0 0 1982
0 0 2295
0 0 2608
0 0 2922
0 0 3235
0 0 3548
0 0 3861
0 0 4095
0 0 4095
0 0 4095
0 254 82
0 252 395
0 250 708
0 248 1022
0 246 1335
0 244 1648
0 241 1961
0 239 2275
0 237 2588
0 235 2901
0 233 3214
0 231 3528
0 229 3841
0 227 4095
0 225 4095
0 223 4095
0 549 61
0 547 375
0 545 688
0 542 1001
0 540 1314
0 538 1628
0 536 1941
0 534 2254
0 532 2567
0 530 2881
0 528 3194
0 526 3507
0 524 3820
0 522 4095
0 520 4095
0 518 4095
0 843 41
0 841 354
0 839 667
0 837 981
0 835 1294
0 833 1607
0 831 1920
0 829 2234
0 827 2547
0 825 2860
0 823 3173
0 821 3487
0 819 3800
0 817 4095
0 815 4095
0 812 4095
0 1138 20
0 1136 334
0 1134 647
0 1132 960
0 1130 1273
0 1128 1587
0 1126 1900
0 1124 2213
0 1122 2526
0 1120 2840
0 1118 3153
0 1116 3466
0 1113 3779
0 1111 4093
0 1109 4095
0 1107 4095
0 1433 0
0 1431 313
0 1429 626
0 1427 940
0 1425 1253
0 1423 1566
0 1421 1879
0 1419 2193
0 1417 2506
0 1414 2819
0 1412 3132
0 1410 3446
0 1408 3759
0 1406 4072
0 1404 4095
0 1402 4095
0 1728 0
0 1726 293
0 1724 606
0 1722 919
0 1720 1232
0 1718 1546
0 1716 1859
0 1713 2172
0 1711 2485
0 1709 2799
0 1707 3112
0 1705 3425
0 1703 3738
0 1701 4052
0 1699 4095
0 1697 4095
0 2023 0
0 2021 272
0 2019 585
0 2017 899
0 2014 1212
0 2012 1525
0 2010 1838
0 2008 2152
0 2006 2465
0 2004 2778
0 2002 3091
0 2000 3405
0 1998 3718
0 1996 4031
0 1994 4095
0 1992 4095
0 2318 0
0 2315 252
0 2313 565
0 2311 878
0 2309 1191
0 2307 1505
0 2305 1818
0 2303 2131
0 2301 2444
0 2299 2758
0 2297 3071
0 2295 3384
0 2293 3697
0 2291 4011
0 2289 4095
0 2287 4095
0 2612 0
0 2610 231
0 2608 544
0 2606 858
0 2604 1171
0 2602 1484
0 2600 1797
0 2598 2111
0 2596 2424
0 2594 2737
0 2592 3050
0 2590 3364
0 2588 3677
0 2585 3990
0 2583 4095
0 2581 4095
0 2907 0
0 2905 211
0 2903 524
0 2901 837
0 2899 1150
0 2897 1464
0 2895 1777
0 2893 2090
0 2891 2403
0 2889 2717
0 2886 3030
0 2884 3343
0 2882 3656
0 2880 3970
0 2878 4095
0 2876 4095
0 3202 0
0 3200 190
0 3198 503
0 3196 817
0 3194 1130
0 3192 1443
0 3190 1756
0 3188 2070
0 3185 2383
0 3183 2696
0 3181 3009
0 3179 3323
0 3177 3636
0 3175 3949
0 3173 4095
0 3171 4095
0 3497 0
0 3495 170
0 3493 483
0 3491 796
0 3489 1109
0 3486 1423
0 3484 1736
0 3482 2049
0 3480 2362
0 3478 2676
0 3476 2989
0 3474 3302
0 3472 3615
0 3470 3929
0 3468 4095
0 3466 4095
0 3792 0
0 3790 149
0 3787 462
0 3785 776
0 3783 1089
0 3781 1402
0 3779 1715
0 3777 2029
0 3775 2342
0 3773 2655
0 3771 2968
0 3769 3282
0 3767 3595
0 3765 3908
0 3763 4095
0 3761 4095
0 4086 0
0 4084 129
0 4082 442
0 4080 755
0 4078 1068
0 4076 1382
0 4074 1695
0 4072 2008
0 4070 2321
0 4068 2635
0 4066 2948
0 4064 3261
0 4062 3574
0 4060 3888
0 4057 4095
0 4055 4095
0 4095 0
0 4095 108
0 4095 421
0 4095 735
0 4095 1048
0 4095 1361
0 4095 1674
0 4095 1988
0 4095 2301
0 4095 2614
0 4095 2927
0 4095 3241
0 4095 3554
0 4095 3867
0 4095 4095
0 4095 4095
125 0 96
123 0 410
121 0 723
119 0 1036
117 0 1349
115 0 1663
113 0 1976
110 0 2289
108 0 2602
106 0 2915
104 0 3229
102 0 3542
100 0 3855
98 0 4095
96 0 4095
94 0 4095
104 248 76
102 246 389
100 244 702
98 242 1016
96 239 1329
94 237 1642
92 235 1955
90 233 2268
88 231 2582
86 229 2895
84 227 3208
82 225 3521
80 223 3835
78 221 4095
75 219 4095
73 217 4095
84 543 55
82 541 369
80 538 682
78 536 995
76 534 1308
74 532 1622
72 530 1935
69 528 2248
67 526 2561
65 524 2874
63 522 3188
61 520 3501
59 518 3814
57 516 4095
55 514 4095
53 512 4095
63 837 35
61 835 348
59 833 661
57 831 975
55 829 1288
53 827 1601
51 825 1914
49 823 2227
47 821 2541
45 819 2854
43 817 3167
41 815 3480
39 813 3794
37 810 4095
34 808 4095
32 806 4095
43 1132 14
41 1130 328
39 1128 641
37 1126 954
35 1124 1267
33 1122 1581
31 1120 1894
28 1118 2207
26 1116 2520
24 1114 2833
22 1112 3147
20 1109 3460
18 1107 3773
16 1105 4086
14 1103 4095
12 1101 4095
22 1427 0
20 1425 307
18 1423 620
16 1421 934
14 1419 1247
12 1417 1560
10 1415 1873
8 1413 2186
6 1410 2500
4 1408 2813
2 1406 3126
0 1404 3439
0 1402 3753
0 1400 4066
0 1398 4095
0 1396 4095
2 1722 0
0 1720 287
0 1718 600
0 1716 913
0 1714 1226
0 1711 1540
0 1709 1853
0 1707 2166
0 1705 2479
0 1703 2792
0 1701 3106
0 1699 3419
0 1697 3732
0 1695 4045
0 1693 4095
0 1691 4095
0 2017 0
0 2015 266
0 2013 579
0 2010 893
0 2008 1206
0 2006 1519
0 2004 1832
0 2002 2145
0 2000 2459
0 1998 2772
0 1996 3085
0 1994 3398
0 1992 3712
0 1990 4025
0 1988 4095
0 1986 4095
0 2311 0
0 2309 246
0 2307 559
0 2305 872
0 2303 1185
0 2301 1498
0 2299 1812
0 2297 2125
0 2295 2438
0 2293 2751
0 2291 3065
0 2289 3378
0 2287 3691
0 2285 4004
0 2282 4095
0 2280 4095
0 2606 0
0 2604 225
0 2602 538
0 2600 852
0 2598 1165
0 2596 1478
0 2594 1791
0 2592 2104
0 2590 2418
0 2588 2731
0 2586 3044
0 2584 3357
0 2581 3671
0 2579 3984
0 2577 4095
0 2575 4095
0 2901 0
0 2899 205
0 2897 518
0 2895 831
0 2893 1144
0 2891 1457
0 2889 1771
0 2887 2084
0 2885 2397
0 2882 2710
0 2880 3024
0 2878 3337
0 2876 3650
0 2874 3963
0 2872 4095
0 2870 4095
0 3196 0
0 3194 184
0 3192 497
0 3190 811
0 3188 1124
0 3186 1437
0 3183 1750
0 3181 2063
0 3179 2377
0 3177 2690
0 3175 3003
0 3173 3316
0 3171 3630
0 3169 3943
0 3167 4095
0 3165 4095
0 3491 0
0 3489 164
0 3487 477
0 3485 790
0 3482 1103
0 3480 1416
0 3478 1730
0 3476 2043
0 3474 2356
0 3472 2669
0 3470 2983
0 3468 3296
0 3466 3609
0 3464 3922
0 3462 4095
0 3460 4095
0 3786 0
0 3783 143
0 3781 456
0 3779 770
0 3777 1083
0 3775 1396
0 3773 1709
0 3771 2022
0 3769 2336
0 3767 2649
0 3765 2962
0 3763 3275
0 3761 3589
0 3759 3902
0 3757 4095
0 3754 4095
0 4080 0
0 4078 123
0 4076 436
0 4074 749
0 4072 1062
0 4070 1375
0 4068 1689
0 4066 2002
0 4064 2315
0 4062 2628
0 4060 2942
0 4058 3255
0 4056 3568
0 4053 3881
0 4051 4095
0 4049 4095
0 4095 0
0 4095 102
0 4095 415
0 4095 728
0 4095 1042
0 4095 1355
0 4095 1668
0 4095 1981
0 4095 2295
0 4095 2608
0 4095 2921
0 4095 3234
0 4095 3548
0 4095 3861
0 4095 4095
0 4095 4095
434 0 90
432 0 403
430 0 717
428 0 1030
426 0 1343
424 0 1656
422 0 1970
420 0 2283
418 0 2596
416 0 2909
413 0 3223
411 0 3536
409 0 3849
407 0 4095
405 0 4095
403 0 4095
414 242 70
412 240 383
410 238 696
407 235 1009
405 233 1323
403 231 1636
401 229 1949
399 227 2262
397 225 2576
395 223 2889
393 221 3202
391 219 3515
389 217 3829
387 215 4095
385 213 4095
383 211 4095
393 536 49
391 534 362
389 532 676
387 530 989
385 528 1302
383 526 1615
381 524 1929
379 522 2242
377 520 2555
375 518 2868
372 516 3182
370 514 3495
368 512 3808
366 510 4095
364 508 4095
362 505 4095
373 831 29
371 829 342
369 827 655
366 825 968
364 823 1282
362 821 1595
360 819 1908
358 817 2221
356 815 2535
354 813 2848
352 811 3161
350 809 3474
348 806 3788
346 804 4095
344 802 4095
342 800 4095
352 1126 8
350 1124 321
348 1122 635
346 1120 948
344 1118 1261
342 1116 1574
340 1114 1888
338 1112 2201
336 1110 2514
334 1107 2827
331 1105 3141
329 1103 3454
327 1101 3767
325 1099 4080
323 1097 4095
321 1095 4095
332 1421 0
330 1419 301
328 1417 614
325 1415 927
323 1413 1241
321 1411 1554
319 1409 1867
317 1406 2180
315 1404 2494
313 1402 2807
311 1400 3120
309 1398 3433
307 1396 3747
305 1394 4060
303 1392 4095
301 1390 4095
311 1716 0
309 1714 280
307 1712 594
305 1710 907
303 1707 1220
301 1705 1533
299 1703 1847
297 1701 2160
295 1699 2473
293 1697 2786
290 1695 3100
288 1693 3413
286 1691 3726
284 1689 4039
282 1687 4095
280 1685 4095
291 2011 0
289 2008 260
287 2006 573
284 2004 886
282 2002 1200
280 2000 1513
278 1998 1826
276 1996 2139
274 1994 2453
272 1992 2766
270 1990 3079
268 1988 3392
266 1986 3706
264 1984 4019
262 1982 4095
260 1980 4095
270 2305 0
268 2303 239
266 2301 553
264 2299 866
262 2297 1179
260 2295 1492
258 2293 1806
256 2291 2119
254 2289 2432
252 2287 2745
249 2285 3059
247 2283 3372
245 2281 3685
243 2278 3998
241 2276 4095
239 2274 4095
250 2600 0
248 2598 219
246 2596 532
243 2594 845
241 2592 1159
239 2590 1472
237 2588 1785
235 2586 2098
233 2584 2412
231 2582 2725
229 2579 3038
227 2577 3351
225 2575 3665
223 2573 3978
221 2571 4095
219 2569 4095
229 2895 0
227 2893 198
225 2891 512
223 2889 825
221 2887 1138
219 2885 1451
217 2883 1765
215 2881 2078
213 2878 2391
211 2876 2704
208 2874 3018
206 2872 3331
204 2870 3644
202 2868 3957
200 2866 4095
198 2864 4095
209 3190 0
207 3188 178
205 3186 491
202 3184 804
200 3182 1118
198 3179 1431
196 3177 1744
194 3175 2057
192 3173 2371
190 3171 2684
188 3169 2997
186 3167 3310
184 3165 3624
182 3163 3937
180 3161 4095
178 3159 4095
188 3485 0
186 3483 157
184 3480 471
182 3478 784
180 3476 1097
178 3474 1410
176 3472 1724
174 3470 2037
172 3468 2350
170 3466 2663
167 3464 2977
165 3462 3290
163 3460 3603
161 3458 3916
159 3456 4095
157 3454 4095
168 3779 0
166 3777 137
164 3775 450
161 3773 763
159 3771 1077
157 3769 1390
155 3767 1703
153 3765 2016
151 3763 2330
149 3761 2643
147 3759 2956
145 3757 3269
143 3755 3583
141 3753 3896
139 3750 4095
137 3748 4095
147 4074 0
145 4072 116
143 4070 430
141 4068 743
139 4066 1056
137 4064 1369
135 4062 1683
133 4060 1996
131 4058 2309
129 4056 2622
126 4054 2936
124 4051 3249
122 4049 3562
120 4047 3875
118 4045 4095
116 4043 4095
127 4095 0
125 4095 96
123 4095 409
120 4095 722
118 4095 1036
116 4095 1349
114 4095 1662
112 4095 1975
110 4095 2289
108 4095 2602
106 4095 2915
104 4095 3228
102 4095 3542
100 4095 3855
98 4095 4095
96 4095 4095
743 0 84
741 0 397
739 0 711
737 0 1024
735 0 1337
733 0 1650
731 0 1964
729 0 2277
727 0 2590
725 0 2903
723 0 3217
721 0 3530
719 0 3843
716 0 4095
714 0 4095
712 0 4095
723 236 64
721 234 377
719 231 690
717 229 1003
715 227 1317
713 225 1630
710 223 1943
708 221 2256
706 219 2570
704 217 2883
702 215 3196
700 213 3509
698 211 3823
696 209 4095
694 207 4095
692 205 4095
702 530 43
700 528 356
698 526 670
696 524 983
694 522 1296
692 520 1609
690 518 1923
688 516 2236
686 514 2549
684 512 2862
682 510 3176
680 508 3489
678 506 3802
675 503 4095
673 501 4095
671 499 4095
682 825 23
680 823 336
678 821 649
676 819 962
674 817 1276
672 815 1589
669 813 1902
667 811 2215
665 809 2529
663 807 2842
661 805 3155
659 802 3468
657 800 3782
655 798 4095
653 796 4095
651 794 4095
661 1120 2
659 1118 315
657 1116 629
655 1114 942
653 1112 1255
651 1110 1568
649 1108 1882
647 1106 2195
645 1103 2508
643 1101 2821
641 1099 3135
639 1097 3448
637 1095 3761
634 1093 4074
632 1091 4095
630 1089 4095
641 1415 0
639 1413 295
637 1411 608
635 1409 921
633 1407 1235
631 1404 1548
628 1402 1861
626 1400 2174
624 1398 2488
622 1396 2801
620 1394 3114
618 1392 3427
616 1390 3741
614 1388 4054
612 1386 4095
610 1384 4095
620 1710 0
618 1708 274
616 1706 588
614 1703 901
612 1701 1214
610 1699 1527
608 1697 1841
606 1695 2154
604 1693 2467
602 1691 2780
600 1689 3094
598 1687 3407
596 1685 3720
593 1683 4033
591 1681 4095
589 1679 4095
600 2004 0
598 2002 254
596 2000 567
594 1998 880
592 1996 1194
590 1994 1507
587 1992 1820
585 1990 2133
583 1988 2447
581 1986 2760
579 1984 3073
577 1982 3386
575 1980 3700
573 1978 4013
571 1975 4095
569 1973 4095
579 2299 0
577 2297 233
575 2295 547
573 2293 860
