vendor/animastage-standalone/lut/anime-soft.3dl
0 1 2 3 4 5 6 7 8 9 10 11 12 13 14 15
82 0 0
79 0 116
76 0 437
73 0 758
70 0 1078
68 0 1399
65 0 1720
62 0 2041
59 0 2362
56 0 2682
53 0 3003
50 0 3324
47 0 3645
45 0 3966
42 0 4095
39 0 4095
53 275 0
51 272 88
48 269 408
45 266 729
42 263 1050
39 260 1371
36 258 1692
33 255 2012
31 252 2333
28 249 2654
25 246 2975
22 243 3296
19 240 3616
16 237 3937
13 235 4095
10 232 4095
25 570 0
22 567 59
19 564 380
16 561 701
14 559 1022
11 556 1342
8 553 1663
5 550 1984
2 547 2305
0 544 2626
0 541 2946
0 538 3267
0 536 3588
0 533 3909
0 530 4095
0 527 4095
0 865 0
0 862 31
0 860 352
0 857 672
0 854 993
0 851 1314
0 848 1635
0 845 1956
0 842 2276
0 839 2597
0 837 2918
0 834 3239
0 831 3560
0 828 3880
0 825 4095
0 822 4095
0 1160 0
0 1158 2
0 1155 323
0 1152 644
0 1149 965
0 1146 1286
0 1143 1606
0 1140 1927
0 1138 2248
0 1135 2569
0 1132 2890
0 1129 3210
0 1126 3531
0 1123 3852
0 1120 4095
0 1117 4095
0 1456 0
0 1453 0
0 1450 295
0 1447 616
0 1444 936
0 1441 1257
0 1439 1578
0 1436 1899
0 1433 2219
0 1430 2540
0 1427 2861
0 1424 3182
0 1421 3503
0 1418 3823
0 1416 4095
0 1413 4095
0 1751 0
0 1748 0
0 1745 266
0 1742 587
0 1739 908
0 1737 1229
0 1734 1549
0 1731 1870
0 1728 2191
0 1725 2512
0 1722 2833
0 1719 3153
0 1717 3474
0 1714 3795
0 1711 4095
0 1708 4095
0 2046 0
0 2043 0
0 2040 238
0 2038 559
0 2035 879
0 2032 1200
0 2029 1521
0 2026 1842
0 2023 2163
0 2020 2483
0 2018 2804
0 2015 3125
0 2012 3446
0 2009 3767
0 2006 4087
0 2003 4095
0 2341 0
0 2339 0
0 2336 209
0 2333 530
0 2330 851
0 2327 1172
0 2324 1493
0 2321 1813
0 2318 2134
0 2316 2455
0 2313 2776
0 2310 3097
0 2307 3417
0 2304 3738
0 2301 4059
0 2298 4095
0 2637 0
0 2634 0
0 2631 181
0 2628 502
0 2625 823
0 2622 1143
0 2619 1464
0 2617 1785
0 2614 2106
0 2611 2427
0 2608 2747
0 2605 3068
0 2602 3389
0 2599 3710
0 2597 4031
0 2594 4095
0 2932 0
0 2929 0
0 2926 153
0 2923 473
0 2920 794
0 2918 1115
0 2915 1436
0 2912 1757
0 2909 2077
0 2906 2398
0 2903 2719
0 2900 3040
0 2897 3361
0 2895 3681
0 2892 4002
0 2889 4095
0 3227 0
0 3224 0
0 3221 124
0 3219 445
0 3216 766
0 3213 1087
0 3210 1407
0 3207 1728
0 3204 2049
0 3201 2370
0 3198 2691
0 3196 3011
0 3193 3332
0 3190 3653
0 3187 3974
0 3184 4095
0 3522 0
0 3520 0
0 3517 96
0 3514 417
0 3511 737
0 3508 1058
0 3505 1379
0 3502 1700
0 3499 2021
0 3497 2341
0 3494 2662
0 3491 2983
0 3488 3304
0 3485 3624
0 3482 3945
0 3479 4095
0 3818 0
0 3815 0
0 3812 67
0 3809 388
0 3806 709
0 3803 1030
0 3800 1350
0 3798 1671
0 3795 1992
0 3792 2313
0 3789 2634
0 3786 2954
0 3783 3275
0 3780 3596
0 3777 3917
0 3775 4095
0 4095 0
0 4095 0
0 4095 39
0 4095 360
0 4095 680
0 4095 1001
0 4095 1322
0 4093 1643
0 4090 1964
0 4087 2284
0 4084 2605
0 4081 2926
0 4078 3247
0 4076 3568
0 4073 3888
0 4070 4095
0 4095 0
0 4095 0
0 4095 10
0 4095 331
0 4095 652
0 4095 973
0 4095 1294
0 4095 1614
0 4095 1935
0 4095 2256
0 4095 2577
0 4095 2898
0 4095 3218
0 4095 3539
0 4095 3860
0 4095 4095
397 0 0
394 0 108
391 0 428
389 0 749
386 0 1070
383 0 1391
380 0 1712
377 0 2032
374 0 2353
371 0 2674
368 0 2995
366 0 3316
363 0 3636
360 0 3957
357 0 4095
354 0 4095
369 266 0
366 263 79
363 261 400
360 258 721
357 255 1042
354 252 1362
351 249 1683
349 246 2004
346 243 2325
343 240 2646
340 238 2966
337 235 3287
334 232 3608
331 229 3929
329 226 4095
326 223 4095
340 562 0
337 559 51
335 556 372
332 553 692
329 550 1013
326 547 1334
323 544 1655
320 541 1976
317 539 2296
314 536 2617
312 533 2938
309 530 3259
306 527 3580
303 524 3900
300 521 4095
297 519 4095
312 857 0
309 854 22
306 851 343
303 848 664
300 845 985
297 842 1306
295 840 1626
292 837 1947
289 834 2268
286 831 2589
283 828 2910
280 825 3230
277 822 3551
275 819 3872
272 817 4095
269 814 4095
283 1152 0
281 1149 0
278 1146 315
275 1143 635
272 1141 956
269 1138 1277
266 1135 1598
263 1132 1919
260 1129 2239
258 1126 2560
255 1123 2881
252 1120 3202
249 1118 3523
246 1115 3843
243 1112 4095
240 1109 4095
255 1447 0
252 1444 0
249 1442 286
246 1439 607
243 1436 928
241 1433 1249
238 1430 1569
235 1427 1890
232 1424 2211
229 1421 2532
226 1419 2853
223 1416 3173
221 1413 3494
218 1410 3815
215 1407 4095
212 1404 4095
227 1743 0
224 1740 0
221 1737 258
218 1734 579
215 1731 899
212 1728 1220
209 1725 1541
206 1722 1862
204 1720 2183
201 1717 2503
198 1714 2824
195 1711 3145
192 1708 3466
189 1705 3787
186 1702 4095
184 1699 4095
198 2038 0
195 2035 0
192 2032 229
190 2029 550
187 2026 871
184 2023 1192
181 2021 1513
178 2018 1833
175 2015 2154
172 2012 2475
169 2009 2796
167 2006 3117
164 2003 3437
161 2000 3758
158 1998 4079
155 1995 4095
170 2333 0
167 2330 0
164 2327 201
161 2324 522
158 2322 843
155 2319 1163
152 2316 1484
150 2313 1805
147 2310 2126
144 2307 2447
141 2304 2767
138 2301 3088
135 2299 3409
132 2296 3730
130 2293 4051
127 2290 4095
141 2628 0
138 2625 0
136 2622 173
133 2620 493
130 2617 814
127 2614 1135
124 2611 1456
121 2608 1777
118 2605 2097
115 2602 2418
113 2600 2739
110 2597 3060
107 2594 3381
104 2591 3701
101 2588 4022
98 2585 4095
113 2923 0
110 2921 0
107 2918 144
104 2915 465
101 2912 786
98 2909 1107
96 2906 1427
93 2903 1748
90 2901 2069
87 2898 2390
84 2895 2711
81 2892 3031
78 2889 3352
76 2886 3673
73 2883 3994
70 2880 4095
84 3219 0
82 3216 0
79 3213 116
76 3210 436
73 3207 757
70 3204 1078
67 3202 1399
64 3199 1720
61 3196 2040
59 3193 2361
56 3190 2682
53 3187 3003
50 3184 3324
47 3181 3644
44 3179 3965
41 3176 4095
56 3514 0
53 3511 0
50 3508 87
47 3505 408
44 3502 729
42 3500 1050
39 3497 1370
36 3494 1691
33 3491 2012
30 3488 2333
27 3485 2654
24 3482 2974
22 3480 3295
19 3477 3616
16 3474 3937
13 3471 4095
28 3809 0
25 3806 0
22 3803 59
19 3801 380
16 3798 700
13 3795 1021
10 3792 1342
7 3789 1663
5 3786 1984
2 3783 2304
0 3781 2625
0 3778 2946
0 3775 3267
0 3772 3588
0 3769 3908
0 3766 4095
0 4095 0
0 4095 0
0 4095 30
0 4095 351
0 4093 672
0 4090 993
0 4087 1314
0 4084 1634
0 4081 1955
0 4079 2276
0 4076 2597
0 4073 2918
0 4070 3238
0 4067 3559
0 4064 3880
0 4061 4095
0 4095 0
0 4095 0
0 4095 2
0 4095 323
0 4095 644
0 4095 964
0 4095 1285
0 4095 1606
0 4095 1927
0 4095 2248
0 4095 2568
0 4095 2889
0 4095 3210
0 4095 3531
0 4095 3852
0 4095 4095
712 0 0
709 0 99
707 0 420
704 0 741
701 0 1062
698 0 1382
695 0 1703
692 0 2024
689 0 2345
687 0 2666
684 0 2986
681 0 3307
678 0 3628
675 0 3949
672 0 4095
669 0 4095
684 258 0
681 255 71
678 252 392
675 249 712
672 246 1033
670 244 1354
667 241 1675
664 238 1996
661 235 2316
658 232 2637
655 229 2958
652 226 3279
649 223 3600
647 221 3920
644 218 4095
641 215 4095
655 553 0
653 550 42
650 547 363
647 544 684
644 542 1005
641 539 1325
638 536 1646
635 533 1967
633 530 2288
630 527 2609
627 524 2929
624 522 3250
621 519 3571
618 516 3892
615 513 4095
612 510 4095
627 848 0
624 845 14
621 843 335
618 840 655
616 837 976
613 834 1297
610 831 1618
607 828 1939
604 825 2259
601 823 2580
598 820 2901
595 817 3222
593 814 3543
590 811 3863
587 808 4095
584 805 4095
599 1144 0
596 1141 0
593 1138 306
590 1135 627
587 1132 948
584 1129 1269
581 1126 1589
579 1123 1910
576 1121 2231
573 1118 2552
570 1115 2873
567 1112 3193
564 1109 3514
561 1106 3835
558 1103 4095
556 1101 4095
570 1439 0
567 1436 0
564 1433 278
562 1430 599
559 1427 919
556 1424 1240
553 1422 1561
550 1419 1882
547 1416 2203
544 1413 2523
541 1410 2844
539 1407 3165
536 1404 3486
533 1402 3807
530 1399 4095
527 1396 4095
542 1734 0
539 1731 0
536 1728 249
533 1725 570
530 1723 891
527 1720 1212
525 1717 1533
522 1714 1853
519 1711 2174
516 1708 2495
513 1705 2816
510 1702 3137
507 1700 3457
504 1697 3778
502 1694 4095
499 1691 4095
513 2029 0
510 2026 0
508 2024 221
505 2021 542
502 2018 863
499 2015 1183
496 2012 1504
493 2009 1825
490 2006 2146
488 2003 2467
485 2001 2787
482 1998 3108
479 1995 3429
476 1992 3750
473 1989 4071
470 1986 4095
485 2325 0
482 2322 0
479 2319 193
476 2316 513
473 2313 834
471 2310 1155
468 2307 1476
465 2304 1797
462 2302 2117
459 2299 2438
456 2296 2759
453 2293 3080
450 2290 3401
448 2287 3721
445 2284 4042
442 2281 4095
456 2620 0
454 2617 0
451 2614 164
448 2611 485
445 2608 806
442 2605 1126
439 2603 1447
436 2600 1768
434 2597 2089
431 2594 2410
428 2591 2730
425 2588 3051
422 2585 3372
419 2582 3693
416 2580 4014
413 2577 4095
428 2915 0
425 2912 0
422 2909 136
419 2906 456
417 2904 777
414 2901 1098
411 2898 1419
408 2895 1740
405 2892 2060
402 2889 2381
399 2886 2702
396 2883 3023
394 2881 3344
391 2878 3664
388 2875 3985
385 2872 4095
400 3210 0
397 3207 0
394 3205 107
391 3202 428
388 3199 749
385 3196 1070
382 3193 1390
380 3190 1711
377 3187 2032
374 3184 2353
371 3182 2674
368 3179 2994
365 3176 3315
362 3173 3636
359 3170 3957
357 3167 4095
371 3506 0
368 3503 0
365 3500 79
363 3497 400
360 3494 720
357 3491 1041
354 3488 1362
351 3485 1683
348 3483 2004
345 3480 2324
342 3477 2645
340 3474 2966
337 3471 3287
334 3468 3608
331 3465 3928
328 3462 4095
343 3801 0
340 3798 0
337 3795 50
334 3792 371
331 3789 692
328 3786 1013
326 3784 1334
323 3781 1654
320 3778 1975
317 3775 2296
314 3772 2617
311 3769 2938
308 3766 3258
305 3763 3579
303 3761 3900
300 3758 4095
314 4095 0
311 4093 0
309 4090 22
306 4087 343
303 4085 664
300 4082 984
297 4079 1305
294 4076 1626
291 4073 1947
289 4070 2268
286 4067 2588
283 4064 2909
280 4062 3230
277 4059 3551
274 4056 3872
271 4053 4095
286 4095 0
283 4095 0
280 4095 0
277 4095 314
274 4095 635
272 4095 956
269 4095 1277
266 4095 1598
263 4095 1918
260 4095 2239
257 4095 2560
254 4095 2881
251 4095 3202
249 4095 3522
246 4095 3843
243 4095 4095
1028 0 0
1025 0 91
1022 0 411
1019 0 732
1016 0 1053
1013 0 1374
1010 0 1695
1007 0 2015
1005 0 2336
1002 0 2657
999 0 2978
996 0 3299
993 0 3619
990 0 3940
987 0 4095
985 0 4095
999 249 0
996 247 62
993 244 383
991 241 704
988 238 1025
985 235 1345
982 232 1666
979 229 1987
976 226 2308
973 224 2629
970 221 2949
968 218 3270
965 215 3591
962 212 3912
959 209 4095
956 206 4095
971 545 0
968 542 34
965 539 355
962 536 675
959 533 996
956 530 1317
953 527 1638
951 525 1959
948 522 2279
945 519 2600
942 516 2921
939 513 3242
936 510 3563
933 507 3883
931 504 4095
928 502 4095
942 840 0
939 837 5
937 834 326
934 831 647
931 828 968
928 826 1289
925 823 1609
922 820 1930
919 817 2251
916 814 2572
914 811 2893
911 808 3213
908 805 3534
905 803 3855
902 800 4095
899 797 4095
914 1135 0
911 1132 0
908 1129 298
905 1127 619
902 1124 939
899 1121 1260
897 1118 1581
894 1115 1902
891 1112 2223
888 1109 2543
885 1106 2864
882 1104 3185
879 1101 3506
877 1098 3827
874 1095 4095
871 1092 4095
885 1430 0
883 1428 0
880 1425 269
877 1422 590
874 1419 911
871 1416 1232
868 1413 1553
865 1410 1873
862 1407 2194
860 1405 2515
857 1402 2836
854 1399 3157
851 1396 3477
848 1393 3798
845 1390 4095
842 1387 4095
857 1726 0
854 1723 0
851 1720 241
848 1717 562
846 1714 883
843 1711 1203
840 1708 1524
837 1706 1845
834 1703 2166
831 1700 2487
828 1697 2807
825 1694 3128
823 1691 3449
820 1688 3770
817 1685 4091
814 1683 4095
829 2021 0
826 2018 0
823 2015 212
820 2012 533
817 2009 854
814 2007 1175
811 2004 1496
808 2001 1816
806 1998 2137
803 1995 2458
800 1992 2779
797 1989 3100
794 1986 3420
791 1984 3741
788 1981 4062
786 1978 4095
800 2316 0
797 2313 0
794 2310 184
792 2307 505
