vendor/animastage-standalone/lut/monotone.3dl
0 3 6 9 12 15
0 0 0
0 0 0
38 38 38
139 139 139
240 240 240
340 340 340
355 355 355
456 456 456
557 557 557
658 658 658
759 759 759
860 860 860
875 875 875
975 975 975
1076 1076 1076
1177 1177 1177
1278 1278 1278
1379 1379 1379
1394 1394 1394
1495 1495 1495
1596 1596 1596
1696 1696 1696
1797 1797 1797
1898 1898 1898
1913 1913 1913
2014 2014 2014
2115 2115 2115
2216 2216 2216
2316 2316 2316
2417 2417 2417
2432 2432 2432
2533 2533 2533
2634 2634 2634
2735 2735 2735
2836 2836 2836
2936 2936 2936
101 101 101
202 202 202
302 302 302
403 403 403
504 504 504
605 605 605
620 620 620
721 721 721
822 822 822
922 922 922
1023 1023 1023
1124 1124 1124
1139 1139 1139
1240 1240 1240
1341 1341 1341
1442 1442 1442
1542 1542 1542
1643 1643 1643
1658 1658 1658
1759 1759 1759
1860 1860 1860
1961 1961 1961
2062 2062 2062
2162 2162 2162
2178 2178 2178
2278 2278 2278
2379 2379 2379
2480 2480 2480
2581 2581 2581
2682 2682 2682
2697 2697 2697
2798 2798 2798
2898 2898 2898
2999 2999 2999
3100 3100 3100
3201 3201 3201
365 365 365
466 466 466
567 567 567
668 668 668
768 768 768
869 869 869
884 884 884
985 985 985
1086 1086 1086
1187 1187 1187
1288 1288 1288
1389 1389 1389
1404 1404 1404
1504 1504 1504
1605 1605 1605
1706 1706 1706
1807 1807 1807
1908 1908 1908
1923 1923 1923
2024 2024 2024
2124 2124 2124
2225 2225 2225
2326 2326 2326
2427 2427 2427
2442 2442 2442
2543 2543 2543
2644 2644 2644
2745 2745 2745
2845 2845 2845
2946 2946 2946
2961 2961 2961
3062 3062 3062
3163 3163 3163
3264 3264 3264
3365 3365 3365
3465 3465 3465
630 630 630
730 730 730
831 831 831
932 932 932
1033 1033 1033
1134 1134 1134
1149 1149 1149
1250 1250 1250
1350 1350 1350
1451 1451 1451
1552 1552 1552
1653 1653 1653
1668 1668 1668
1769 1769 1769
1870 1870 1870
1971 1971 1971
2071 2071 2071
2172 2172 2172
2187 2187 2187
2288 2288 2288
2389 2389 2389
2490 2490 2490
2591 2591 2591
2691 2691 2691
2706 2706 2706
2807 2807 2807
2908 2908 2908
3009 3009 3009
3110 3110 3110
3211 3211 3211
3226 3226 3226
3327 3327 3327
3427 3427 3427
3528 3528 3528
3629 3629 3629
3730 3730 3730
894 894 894
995 995 995
1096 1096 1096
1197 1197 1197
1297 1297 1297
1398 1398 1398
1413 1413 1413
1514 1514 1514
1615 1615 1615
1716 1716 1716
1817 1817 1817
1917 1917 1917
1933 1933 1933
2033 2033 2033
2134 2134 2134
2235 2235 2235
2336 2336 2336
2437 2437 2437
2452 2452 2452
2553 2553 2553
2653 2653 2653
2754 2754 2754
2855 2855 2855
2956 2956 2956
2971 2971 2971
3072 3072 3072
3173 3173 3173
3273 3273 3273
3374 3374 3374
3475 3475 3475
3490 3490 3490
3591 3591 3591
3692 3692 3692
3793 3793 3793
3893 3893 3893
3994 3994 3994
1159 1159 1159
1259 1259 1259
1360 1360 1360
1461 1461 1461
1562 1562 1562
1663 1663 1663
1678 1678 1678
1779 1779 1779
1879 1879 1879
1980 1980 1980
2081 2081 2081
2182 2182 2182
2197 2197 2197
2298 2298 2298
2399 2399 2399
2499 2499 2499
2600 2600 2600
2701 2701 2701
2716 2716 2716
2817 2817 2817
2918 2918 2918
3019 3019 3019
3120 3120 3120
3220 3220 3220
3235 3235 3235
3336 3336 3336
3437 3437 3437
3538 3538 3538
3639 3639 3639
3740 3740 3740
3755 3755 3755
3855 3855 3855
3956 3956 3956
4057 4057 4057
4095 4095 4095
4095 4095 4095
