vendor/animastage-standalone/lut/monotone.3dl
0 1 2 3 4 5 6 7 8 9 10 11 12 13 14 15
0 0 0
0 0 0
0 0 0
0 0 0
0 0 0
4 4 4
38 38 38
71 71 71
105 105 105
139 139 139
172 172 172
206 206 206
240 240 240
273 273 273
307 307 307
340 340 340
9 9 9
43 43 43
76 76 76
110 110 110
144 144 144
177 177 177
211 211 211
245 245 245
278 278 278
312 312 312
345 345 345
379 379 379
413 413 413
446 446 446
480 480 480
513 513 513
182 182 182
216 216 216
250 250 250
283 283 283
317 317 317
350 350 350
384 384 384
418 418 418
451 451 451
485 485 485
518 518 518
552 552 552
586 586 586
619 619 619
653 653 653
687 687 687
355 355 355
389 389 389
423 423 423
456 456 456
490 490 490
523 523 523
557 557 557
591 591 591
624 624 624
658 658 658
692 692 692
725 725 725
759 759 759
792 792 792
826 826 826
860 860 860
528 528 528
562 562 562
596 596 596
629 629 629
663 663 663
697 697 697
730 730 730
764 764 764
797 797 797
831 831 831
865 865 865
898 898 898
932 932 932
965 965 965
999 999 999
1033 1033 1033
702 702 702
735 735 735
769 769 769
802 802 802
836 836 836
870 870 870
903 903 903
937 937 937
970 970 970
1004 1004 1004
1038 1038 1038
1071 1071 1071
1105 1105 1105
1139 1139 1139
1172 1172 1172
1206 1206 1206
875 875 875
908 908 908
942 942 942
975 975 975
1009 1009 1009
1043 1043 1043
1076 1076 1076
1110 1110 1110
1144 1144 1144
1177 1177 1177
1211 1211 1211
1244 1244 1244
1278 1278 1278
1312 1312 1312
1345 1345 1345
1379 1379 1379
1048 1048 1048
1081 1081 1081
1115 1115 1115
1149 1149 1149
1182 1182 1182
1216 1216 1216
1249 1249 1249
1283 1283 1283
1317 1317 1317
1350 1350 1350
1384 1384 1384
1417 1417 1417
1451 1451 1451
1485 1485 1485
1518 1518 1518
1552 1552 1552
1221 1221 1221
1254 1254 1254
1288 1288 1288
1322 1322 1322
1355 1355 1355
1389 1389 1389
1422 1422 1422
1456 1456 1456
1490 1490 1490
1523 1523 1523
1557 1557 1557
1590 1590 1590
1624 1624 1624
1658 1658 1658
1691 1691 1691
1725 1725 1725
1394 1394 1394
1427 1427 1427
1461 1461 1461
1495 1495 1495
1528 1528 1528
1562 1562 1562
1596 1596 1596
1629 1629 1629
1663 1663 1663
1696 1696 1696
1730 1730 1730
1764 1764 1764
1797 1797 1797
1831 1831 1831
1864 1864 1864
1898 1898 1898
1567 1567 1567
1601 1601 1601
1634 1634 1634
1668 1668 1668
1701 1701 1701
1735 1735 1735
1769 1769 1769
1802 1802 1802
1836 1836 1836
1869 1869 1869
1903 1903 1903
1937 1937 1937
1970 1970 1970
2004 2004 2004
2037 2037 2037
2071 2071 2071
1740 1740 1740
1774 1774 1774
1807 1807 1807
1841 1841 1841
1874 1874 1874
1908 1908 1908
1942 1942 1942
1975 1975 1975
2009 2009 2009
2042 2042 2042
2076 2076 2076
2110 2110 2110
2143 2143 2143
2177 2177 2177
2211 2211 2211
2244 2244 2244
1913 1913 1913
1947 1947 1947
1980 1980 1980
2014 2014 2014
2048 2048 2048
2081 2081 2081
2115 2115 2115
2148 2148 2148
2182 2182 2182
2216 2216 2216
2249 2249 2249
2283 2283 2283
2316 2316 2316
2350 2350 2350
2384 2384 2384
2417 2417 2417
2086 2086 2086
2120 2120 2120
2153 2153 2153
2187 2187 2187
2221 2221 2221
2254 2254 2254
2288 2288 2288
2321 2321 2321
2355 2355 2355
2389 2389 2389
2422 2422 2422
2456 2456 2456
2489 2489 2489
2523 2523 2523
2557 2557 2557
2590 2590 2590
2259 2259 2259
2293 2293 2293
2326 2326 2326
2360 2360 2360
2394 2394 2394
2427 2427 2427
2461 2461 2461
2494 2494 2494
2528 2528 2528
2562 2562 2562
2595 2595 2595
2629 2629 2629
2663 2663 2663
2696 2696 2696
2730 2730 2730
2763 2763 2763
2432 2432 2432
2466 2466 2466
2499 2499 2499
2533 2533 2533
2567 2567 2567
2600 2600 2600
2634 2634 2634
2668 2668 2668
2701 2701 2701
2735 2735 2735
2768 2768 2768
2802 2802 2802
2836 2836 2836
2869 2869 2869
2903 2903 2903
2936 2936 2936
0 0 0
0 0 0
0 0 0
25 25 25
59 59 59
92 92 92
126 126 126
160 160 160
193 193 193
227 227 227
260 260 260
294 294 294
328 328 328
361 361 361
395 395 395
429 429 429
97 97 97
131 131 131
165 165 165
198 198 198
232 232 232
265 265 265
299 299 299
333 333 333
366 366 366
400 400 400
434 434 434
467 467 467
501 501 501
534 534 534
568 568 568
602 602 602
270 270 270
304 304 304
338 338 338
371 371 371
405 405 405
439 439 439
472 472 472
506 506 506
539 539 539
573 573 573
607 607 607
640 640 640
674 674 674
707 707 707
741 741 741
775 775 775
444 444 444
477 477 477
511 511 511
544 544 544
578 578 578
612 612 612
645 645 645
679 679 679
712 712 712
746 746 746
780 780 780
813 813 813
847 847 847
881 881 881
914 914 914
948 948 948
617 617 617
650 650 650
684 684 684
717 717 717
751 751 751
785 785 785
818 818 818
852 852 852
886 886 886
919 919 919
953 953 953
986 986 986
1020 1020 1020
1054 1054 1054
1087 1087 1087
1121 1121 1121
790 790 790
823 823 823
857 857 857
891 891 891
924 924 924
958 958 958
991 991 991
1025 1025 1025
1059 1059 1059
1092 1092 1092
1126 1126 1126
1159 1159 1159
1193 1193 1193
1227 1227 1227
1260 1260 1260
1294 1294 1294
963 963 963
996 996 996
1030 1030 1030
1064 1064 1064
1097 1097 1097
1131 1131 1131
1164 1164 1164
1198 1198 1198
1232 1232 1232
1265 1265 1265
1299 1299 1299
1333 1333 1333
1366 1366 1366
1400 1400 1400
1433 1433 1433
1467 1467 1467
1136 1136 1136
1169 1169 1169
1203 1203 1203
1237 1237 1237
1270 1270 1270
1304 1304 1304
1338 1338 1338
1371 1371 1371
1405 1405 1405
1438 1438 1438
1472 1472 1472
1506 1506 1506
1539 1539 1539
1573 1573 1573
1606 1606 1606
1640 1640 1640
1309 1309 1309
1343 1343 1343
1376 1376 1376
1410 1410 1410
1443 1443 1443
1477 1477 1477
1511 1511 1511
1544 1544 1544
1578 1578 1578
1611 1611 1611
1645 1645 1645
1679 1679 1679
1712 1712 1712
1746 1746 1746
1779 1779 1779
1813 1813 1813
1482 1482 1482
1516 1516 1516
1549 1549 1549
1583 1583 1583
1616 1616 1616
1650 1650 1650
1684 1684 1684
1717 1717 1717
1751 1751 1751
1785 1785 1785
1818 1818 1818
1852 1852 1852
1885 1885 1885
1919 1919 1919
1953 1953 1953
1986 1986 1986
1655 1655 1655
1689 1689 1689
1722 1722 1722
1756 1756 1756
1790 1790 1790
1823 1823 1823
1857 1857 1857
1890 1890 1890
1924 1924 1924
1958 1958 1958
1991 1991 1991
2025 2025 2025
2058 2058 2058
2092 2092 2092
2126 2126 2126
2159 2159 2159
1828 1828 1828
1862 1862 1862
1895 1895 1895
1929 1929 1929
1963 1963 1963
1996 1996 1996
2030 2030 2030
2063 2063 2063
2097 2097 2097
2131 2131 2131
2164 2164 2164
2198 2198 2198
2231 2231 2231
2265 2265 2265
2299 2299 2299
2332 2332 2332
2001 2001 2001
2035 2035 2035
2068 2068 2068
2102 2102 2102
2136 2136 2136
2169 2169 2169
2203 2203 2203
2236 2236 2236
2270 2270 2270
2304 2304 2304
2337 2337 2337
2371 2371 2371
2405 2405 2405
2438 2438 2438
2472 2472 2472
2505 2505 2505
2174 2174 2174
2208 2208 2208
2242 2242 2242
2275 2275 2275
2309 2309 2309
2342 2342 2342
2376 2376 2376
2410 2410 2410
2443 2443 2443
2477 2477 2477
2510 2510 2510
2544 2544 2544
2578 2578 2578
2611 2611 2611
2645 2645 2645
2678 2678 2678
2347 2347 2347
2381 2381 2381
2415 2415 2415
2448 2448 2448
2482 2482 2482
2515 2515 2515
2549 2549 2549
2583 2583 2583
2616 2616 2616
2650 2650 2650
2683 2683 2683
2717 2717 2717
2751 2751 2751
2784 2784 2784
2818 2818 2818
2852 2852 2852
2520 2520 2520
2554 2554 2554
2588 2588 2588
2621 2621 2621
2655 2655 2655
2688 2688 2688
2722 2722 2722
2756 2756 2756
2789 2789 2789
2823 2823 2823
2857 2857 2857
2890 2890 2890
2924 2924 2924
2957 2957 2957
2991 2991 2991
3025 3025 3025
13 13 13
46 46 46
80 80 80
113 113 113
147 147 147
181 181 181
214 214 214
248 248 248
281 281 281
315 315 315
349 349 349
382 382 382
416 416 416
449 449 449
483 483 483
517 517 517
186 186 186
219 219 219
253 253 253
286 286 286
320 320 320
354 354 354
387 387 387
421 421 421
454 454 454
488 488 488
522 522 522
555 555 555
589 589 589
623 623 623
656 656 656
690 690 690
359 359 359
392 392 392
426 426 426
459 459 459
493 493 493
527 527 527
560 560 560
594 594 594
628 628 628
661 661 661
695 695 695
728 728 728
762 762 762
796 796 796
829 829 829
863 863 863
532 532 532
565 565 565
599 599 599
633 633 633
666 666 666
700 700 700
733 733 733
767 767 767
801 801 801
834 834 834
868 868 868
901 901 901
935 935 935
969 969 969
1002 1002 1002
1036 1036 1036
705 705 705
738 738 738
772 772 772
806 806 806
839 839 839
873 873 873
906 906 906
940 940 940
974 974 974
1007 1007 1007
1041 1041 1041
1075 1075 1075
1108 1108 1108
1142 1142 1142
1175 1175 1175
1209 1209 1209
878 878 878
911 911 911
945 945 945
979 979 979
1012 1012 1012
1046 1046 1046
1080 1080 1080
1113 1113 1113
1147 1147 1147
1180 1180 1180
1214 1214 1214
1248 1248 1248
1281 1281 1281
1315 1315 1315
1348 1348 1348
1382 1382 1382
1051 1051 1051
1085 1085 1085
1118 1118 1118
1152 1152 1152
1185 1185 1185
1219 1219 1219
1253 1253 1253
1286 1286 1286
1320 1320 1320
1353 1353 1353
1387 1387 1387
1421 1421 1421
1454 1454 1454
1488 1488 1488
1522 1522 1522
1555 1555 1555
1224 1224 1224
1258 1258 1258
1291 1291 1291
1325 1325 1325
1358 1358 1358
1392 1392 1392
1426 1426 1426
1459 1459 1459
1493 1493 1493
1527 1527 1527
1560 1560 1560
1594 1594 1594
1627 1627 1627
1661 1661 1661
1695 1695 1695
1728 1728 1728
1397 1397 1397
1431 1431 1431
1464 1464 1464
1498 1498 1498
1532 1532 1532
1565 1565 1565
1599 1599 1599
1632 1632 1632
1666 1666 1666
1700 1700 1700
1733 1733 1733
1767 1767 1767
1800 1800 1800
1834 1834 1834
1868 1868 1868
1901 1901 1901
1570 1570 1570
1604 1604 1604
1637 1637 1637
1671 1671 1671
1705 1705 1705
1738 1738 1738
1772 1772 1772
1805 1805 1805
1839 1839 1839
1873 1873 1873
1906 1906 1906
1940 1940 1940
1973 1973 1973
2007 2007 2007
2041 2041 2041
2074 2074 2074
1743 1743 1743
1777 1777 1777
1810 1810 1810
1844 1844 1844
1878 1878 1878
1911 1911 1911
1945 1945 1945
1979 1979 1979
2012 2012 2012
2046 2046 2046
2079 2079 2079
2113 2113 2113
2147 2147 2147
2180 2180 2180
2214 2214 2214
2247 2247 2247
1916 1916 1916
1950 1950 1950
1984 1984 1984
2017 2017 2017
2051 2051 2051
2084 2084 2084
2118 2118 2118
2152 2152 2152
2185 2185 2185
2219 2219 2219
2252 2252 2252
2286 2286 2286
2320 2320 2320
2353 2353 2353
2387 2387 2387
2420 2420 2420
2089 2089 2089
2123 2123 2123
2157 2157 2157
2190 2190 2190
2224 2224 2224
2257 2257 2257
2291 2291 2291
2325 2325 2325
2358 2358 2358
2392 2392 2392
2425 2425 2425
2459 2459 2459
2493 2493 2493
2526 2526 2526
2560 2560 2560
2594 2594 2594
2262 2262 2262
2296 2296 2296
2330 2330 2330
2363 2363 2363
2397 2397 2397
2430 2430 2430
2464 2464 2464
2498 2498 2498
2531 2531 2531
2565 2565 2565
2599 2599 2599
2632 2632 2632
2666 2666 2666
2699 2699 2699
2733 2733 2733
2767 2767 2767
2436 2436 2436
2469 2469 2469
2503 2503 2503
2536 2536 2536
2570 2570 2570
2604 2604 2604
2637 2637 2637
2671 2671 2671
2704 2704 2704
2738 2738 2738
2772 2772 2772
2805 2805 2805
2839 2839 2839
2872 2872 2872
2906 2906 2906
2940 2940 2940
2609 2609 2609
2642 2642 2642
2676 2676 2676
2709 2709 2709
2743 2743 2743
2777 2777 2777
2810 2810 2810
2844 2844 2844
2877 2877 2877
2911 2911 2911
2945 2945 2945
2978 2978 2978
3012 3012 3012
3046 3046 3046
3079 3079 3079
3113 3113 3113
101 101 101
134 134 134
168 168 168
202 202 202
235 235 235
269 269 269
302 302 302
336 336 336
370 370 370
403 403 403
437 437 437
470 470 470
504 504 504
538 538 538
571 571 571
605 605 605
274 274 274
307 307 307
341 341 341
375 375 375
408 408 408
442 442 442
475 475 475
509 509 509
543 543 543
576 576 576
610 610 610
643 643 643
677 677 677
711 711 711
744 744 744
778 778 778
447 447 447
480 480 480
514 514 514
548 548 548
581 581 581
615 615 615
648 648 648
682 682 682
716 716 716
749 749 749
783 783 783
817 817 817
850 850 850
884 884 884
917 917 917
951 951 951
620 620 620
653 653 653
687 687 687
721 721 721
754 754 754
788 788 788
822 822 822
855 855 855
889 889 889
922 922 922
956 956 956
990 990 990
1023 1023 1023
1057 1057 1057
1090 1090 1090
1124 1124 1124
793 793 793
827 827 827
860 860 860
894 894 894
927 927 927
961 961 961
995 995 995
1028 1028 1028
1062 1062 1062
1095 1095 1095
1129 1129 1129
1163 1163 1163
1196 1196 1196
1230 1230 1230
1264 1264 1264
1297 1297 1297
966 966 966
1000 1000 1000
1033 1033 1033
1067 1067 1067
1100 1100 1100
1134 1134 1134
1168 1168 1168
1201 1201 1201
1235 1235 1235
1269 1269 1269
1302 1302 1302
1336 1336 1336
1369 1369 1369
1403 1403 1403
1437 1437 1437
1470 1470 1470
1139 1139 1139
1173 1173 1173
1206 1206 1206
1240 1240 1240
1274 1274 1274
1307 1307 1307
1341 1341 1341
1374 1374 1374
1408 1408 1408
1442 1442 1442
1475 1475 1475
1509 1509 1509
1542 1542 1542
1576 1576 1576
1610 1610 1610
1643 1643 1643
1312 1312 1312
1346 1346 1346
1379 1379 1379
1413 1413 1413
1447 1447 1447
1480 1480 1480
1514 1514 1514
1547 1547 1547
1581 1581 1581
1615 1615 1615
1648 1648 1648
1682 1682 1682
1716 1716 1716
1749 1749 1749
1783 1783 1783
1816 1816 1816
1485 1485 1485
1519 1519 1519
1552 1552 1552
1586 1586 1586
