vendor/animastage-standalone/lut/sepia.3dl
0 1 2 3 4 5 6 7 8 9 10 11 12 13 14 15
115 69 7
164 113 41
213 157 75
263 200 109
312 244 143
362 288 178
411 332 212
460 376 246
510 420 280
559 464 315
608 508 349
658 552 383
707 595 417
756 639 451
806 683 486
855 727 520
316 248 146
365 292 180
414 336 214
464 380 249
513 424 283
562 467 317
612 511 351
661 555 386
710 599 420
760 643 454
809 687 488
859 731 522
908 775 557
957 818 591
1007 862 625
1056 906 659
516 427 286
566 471 320
615 515 354
664 559 388
714 603 422
763 647 457
813 690 491
862 734 525
911 778 559
961 822 593
1010 866 628
1059 910 662
1109 954 696
1158 998 730
1208 1042 765
1257 1085 799
717 606 425
767 650 459
816 694 493
865 738 528
915 782 562
964 826 596
1013 870 630
1063 914 665
1112 957 699
1162 1001 733
1211 1045 767
1260 1089 801
1310 1133 836
1359 1177 870
1408 1221 904
1458 1265 938
918 786 564
967 829 599
1017 873 633
1066 917 667
1116 961 701
1165 1005 736
1214 1049 770
1264 1093 804
1313 1137 838
1362 1180 872
1412 1224 907
1461 1268 941
1511 1312 975
1560 1356 1009
1609 1400 1044
1659 1444 1078
1119 965 704
1168 1009 738
1218 1052 772
1267 1096 807
1316 1140 841
1366 1184 875
1415 1228 909
1465 1272 943
1514 1316 978
1563 1360 1012
1613 1404 1046
1662 1447 1080
1711 1491 1115
1761 1535 1149
1810 1579 1183
1860 1623 1217
1320 1144 843
1369 1188 878
1419 1232 912
1468 1276 946
1517 1319 980
1567 1363 1015
1616 1407 1049
1665 1451 1083
1715 1495 1117
1764 1539 1151
1814 1583 1186
1863 1627 1220
1912 1671 1254
1962 1714 1288
2011 1758 1323
2060 1802 1357
1521 1323 983
1570 1367 1017
1619 1411 1051
1669 1455 1086
1718 1499 1120
1768 1543 1154
1817 1586 1188
1866 1630 1222
1916 1674 1257
1965 1718 1291
2014 1762 1325
2064 1806 1359
2113 1850 1394
2163 1894 1428
2212 1937 1462
2261 1981 1496
1722 1502 1122
1771 1546 1157
1820 1590 1191
1870 1634 1225
1919 1678 1259
1968 1722 1294
2018 1766 1328
2067 1809 1362
2117 1853 1396
2166 1897 1430
2215 1941 1465
2265 1985 1499
2314 2029 1533
2363 2073 1567
2413 2117 1601
2462 2161 1636
1922 1681 1262
1972 1725 1296
2021 1769 1330
2071 1813 1365
2120 1857 1399
2169 1901 1433
2219 1945 1467
2268 1989 1501
2317 2033 1536
2367 2076 1570
2416 2120 1604
2466 2164 1638
2515 2208 1673
2564 2252 1707
2614 2296 1741
2663 2340 1775
2123 1861 1401
2173 1905 1436
2222 1948 1470
2271 1992 1504
2321 2036 1538
2370 2080 1572
2420 2124 1607
2469 2168 1641
2518 2212 1675
2568 2256 1709
2617 2299 1744
2666 2343 1778
2716 2387 1812
2765 2431 1846
2814 2475 1880
2864 2519 1915
2324 2040 1541
2374 2084 1575
2423 2128 1609
2472 2172 1644
2522 2215 1678
2571 2259 1712
2620 2303 1746
2670 2347 1780
2719 2391 1815
2769 2435 1849
2818 2479 1883
2867 2523 1917
2917 2566 1951
2966 2610 1986
3015 2654 2020
3065 2698 2054
2525 2219 1680
2574 2263 1715
2624 2307 1749
2673 2351 1783
2723 2395 1817
2772 2438 1851
2821 2482 1886
2871 2526 1920
2920 2570 1954
2969 2614 1988
3019 2658 2023
3068 2702 2057
3117 2746 2091
3167 2790 2125
3216 2833 2159
3266 2877 2194
2726 2398 1820
2775 2442 1854
2825 2486 1888
2874 2530 1923
2923 2574 1957
2973 2618 1991
3022 2662 2025
3072 2705 2059
3121 2749 2094
3170 2793 2128
3220 2837 2162
3269 2881 2196
3318 2925 2230
3368 2969 2265
3417 3013 2299
3466 3056 2333
2927 2577 1959
2976 2621 1994
3026 2665 2028
3075 2709 2062
3124 2753 2096
3174 2797 2130
3223 2841 2165
3272 2885 2199
3322 2928 2233
3371 2972 2267
3420 3016 2302
3470 3060 2336
3519 3104 2370
3569 3148 2404
3618 3192 2438
3667 3236 2473
3128 2757 2099
3177 2800 2133
3226 2844 2167
3276 2888 2201
3325 2932 2236
3375 2976 2270
3424 3020 2304
3473 3064 2338
3523 3108 2373
3572 3152 2407
3621 3195 2441
3671 3239 2475
3720 3283 2509
3769 3327 2544
3819 3371 2578
3868 3415 2612
217 160 78
267 204 112
316 248 146
365 292 180
415 335 214
464 379 249
514 423 283
563 467 317
612 511 351
662 555 386
711 599 420
760 643 454
810 687 488
859 730 522
908 774 557
958 818 591
418 339 217
468 383 251
517 427 286
566 471 320
616 515 354
665 559 388
714 602 422
764 646 457
813 690 491
862 734 525
912 778 559
961 822 593
1011 866 628
1060 910 662
1109 954 696
1159 997 730
619 518 357
668 562 391
718 606 425
767 650 459
817 694 493
866 738 528
915 782 562
965 826 596
1014 869 630
1063 913 665
1113 957 699
1162 1001 733
1211 1045 767
1261 1089 801
1310 1133 836
1360 1177 870
820 698 496
869 741 530
919 785 564
968 829 599
1017 873 633
1067 917 667
1116 961 701
1165 1005 736
1215 1049 770
1264 1092 804
1314 1136 838
1363 1180 872
1412 1224 907
1462 1268 941
1511 1312 975
1560 1356 1009
1021 877 636
1070 921 670
1120 964 704
1169 1008 738
1218 1052 772
1268 1096 807
1317 1140 841
1366 1184 875
1416 1228 909
1465 1272 943
1514 1316 978
1564 1359 1012
1613 1403 1046
1663 1447 1080
1712 1491 1115
1761 1535 1149
1222 1056 775
1271 1100 809
1320 1144 843
1370 1188 878
1419 1231 912
1468 1275 946
1518 1319 980
1567 1363 1015
1617 1407 1049
1666 1451 1083
1715 1495 1117
1765 1539 1151
1814 1582 1186
1863 1626 1220
1913 1670 1254
1962 1714 1288
1423 1235 915
1472 1279 949
1521 1323 983
1571 1367 1017
1620 1411 1051
1669 1454 1086
1719 1498 1120
1768 1542 1154
1817 1586 1188
1867 1630 1222
1916 1674 1257
1966 1718 1291
2015 1762 1325
2064 1806 1359
2114 1849 1394
2163 1893 1428
1623 1414 1054
1673 1458 1088
1722 1502 1122
1771 1546 1157
1821 1590 1191
1870 1634 1225
1920 1678 1259
1969 1721 1294
2018 1765 1328
2068 1809 1362
2117 1853 1396
2166 1897 1430
2216 1941 1465
2265 1985 1499
2315 2029 1533
2364 2073 1567
1824 1593 1193
1874 1637 1228
1923 1681 1262
1972 1725 1296
2022 1769 1330
2071 1813 1365
2120 1857 1399
2170 1901 1433
2219 1945 1467
2269 1988 1501
2318 2032 1536
2367 2076 1570
2417 2120 1604
2466 2164 1638
2515 2208 1673
2565 2252 1707
2025 1773 1333
2074 1817 1367
2124 1860 1401
2173 1904 1436
2223 1948 1470
2272 1992 1504
2321 2036 1538
2371 2080 1572
2420 2124 1607
2469 2168 1641
2519 2211 1675
2568 2255 1709
2618 2299 1744
2667 2343 1778
2716 2387 1812
2766 2431 1846
2226 1952 1472
2275 1996 1507
2325 2040 1541
2374 2083 1575
2423 2127 1609
2473 2171 1644
2522 2215 1678
2572 2259 1712
2621 2303 1746
2670 2347 1780
2720 2391 1815
2769 2435 1849
2818 2478 1883
2868 2522 1917
2917 2566 1951
2967 2610 1986
2427 2131 1612
2476 2175 1646
2526 2219 1680
2575 2263 1715
2624 2307 1749
2674 2350 1783
2723 2394 1817
2772 2438 1851
2822 2482 1886
2871 2526 1920
2921 2570 1954
2970 2614 1988
3019 2658 2023
3069 2701 2057
3118 2745 2091
3167 2789 2125
2628 2310 1751
2677 2354 1786
2726 2398 1820
2776 2442 1854
2825 2486 1888
2875 2530 1923
2924 2574 1957
2973 2617 1991
3023 2661 2025
3072 2705 2059
3121 2749 2094
3171 2793 2128
3220 2837 2162
3270 2881 2196
3319 2925 2230
3368 2968 2265
2829 2489 1891
2878 2533 1925
2927 2577 1959
2977 2621 1994
3026 2665 2028
3075 2709 2062
3125 2753 2096
3174 2797 2130
3224 2840 2165
3273 2884 2199
3322 2928 2233
3372 2972 2267
3421 3016 2302
3470 3060 2336
3520 3104 2370
3569 3148 2404
3029 2669 2030
3079 2712 2065
3128 2756 2099
3178 2800 2133
3227 2844 2167
3276 2888 2201
3326 2932 2236
3375 2976 2270
3424 3020 2304
3474 3064 2338
3523 3107 2373
3573 3151 2407
3622 3195 2441
3671 3239 2475
3721 3283 2509
3770 3327 2544
3230 2848 2170
3280 2892 2204
3329 2936 2238
3378 2979 2273
3428 3023 2307
3477 3067 2341
3527 3111 2375
3576 3155 2409
3625 3199 2444
3675 3243 2478
3724 3287 2512
3773 3330 2546
3823 3374 2580
3872 3418 2615
3921 3462 2649
3971 3506 2683
320 251 149
369 295 183
419 339 217
468 383 251
517 427 286
567 471 320
616 514 354
666 558 388
715 602 422
764 646 457
814 690 491
863 734 525
912 778 559
962 822 593
1011 865 628
1060 909 662
521 430 288
570 474 322
620 518 357
669 562 391
718 606 425
768 650 459
817 694 493
866 737 528
916 781 562
965 825 596
1015 869 630
1064 913 665
1113 957 699
1163 1001 733
1212 1045 767
1261 1089 801
722 609 428
771 653 462
820 697 496
870 741 530
919 785 564
969 829 599
1018 873 633
1067 917 667
1117 961 701
1166 1004 736
1215 1048 770
1265 1092 804
1314 1136 838
1363 1180 872
1413 1224 907
1462 1268 941
923 789 567
972 833 601
1021 876 636
1071 920 670
1120 964 704
1169 1008 738
1219 1052 772
1268 1096 807
1318 1140 841
1367 1184 875
1416 1228 909
1466 1271 943
1515 1315 978
1564 1359 1012
1614 1403 1046
1663 1447 1080
1123 968 707
1173 1012 741
1222 1056 775
1272 1100 809
1321 1143 843
1370 1187 878
1420 1231 912
1469 1275 946
1518 1319 980
1568 1363 1015
1617 1407 1049
1666 1451 1083
1716 1494 1117
1765 1538 1151
1815 1582 1186
1864 1626 1220
1324 1147 846
1374 1191 880
1423 1235 915
1472 1279 949
1522 1323 983
1571 1366 1017
1621 1410 1051
1670 1454 1086
1719 1498 1120
1769 1542 1154
1818 1586 1188
1867 1630 1222
1917 1674 1257
1966 1718 1291
2015 1761 1325
2065 1805 1359
1525 1326 986
1575 1370 1020
1624 1414 1054
1673 1458 1088
1723 1502 1122
1772 1546 1157
1821 1590 1191
1871 1633 1225
1920 1677 1259
1969 1721 1294
2019 1765 1328
2068 1809 1362
2118 1853 1396
2167 1897 1430
2216 1941 1465
2266 1984 1499
1726 1505 1125
1775 1549 1159
1825 1593 1193
1874 1637 1228
1924 1681 1262
1973 1725 1296
2022 1769 1330
2072 1813 1365
2121 1856 1399
2170 1900 1433
2220 1944 1467
2269 1988 1501
2318 2032 1536
2368 2076 1570
2417 2120 1604
2467 2164 1638
1927 1685 1265
1976 1729 1299
2026 1772 1333
2075 1816 1367
2124 1860 1401
2174 1904 1436
2223 1948 1470
2272 1992 1504
2322 2036 1538
2371 2080 1572
2421 2123 1607
2470 2167 1641
2519 2211 1675
2569 2255 1709
2618 2299 1744
2667 2343 1778
2128 1864 1404
2177 1908 1438
2227 1952 1472
2276 1995 1507
2325 2039 1541
2375 2083 1575
2424 2127 1609
2473 2171 1644
2523 2215 1678
2572 2259 1712
2621 2303 1746
2671 2347 1780
2720 2390 1815
2770 2434 1849
2819 2478 1883
2868 2522 1917
2329 2043 1543
2378 2087 1578
2427 2131 1612
2477 2175 1646
2526 2219 1680
2575 2262 1715
2625 2306 1749
2674 2350 1783
2724 2394 1817
2773 2438 1851
2822 2482 1886
2872 2526 1920
2921 2570 1954
2970 2613 1988
3020 2657 2023
3069 2701 2057
2530 2222 1683
2579 2266 1717
2628 2310 1751
2678 2354 1786
2727 2398 1820
2776 2442 1854
2826 2485 1888
2875 2529 1923
2924 2573 1957
2974 2617 1991
3023 2661 2025
3073 2705 2059
3122 2749 2094
3171 2793 2128
3221 2837 2162
3270 2880 2196
2730 2401 1822
2780 2445 1857
2829 2489 1891
2878 2533 1925
2928 2577 1959
2977 2621 1994
3027 2665 2028
3076 2709 2062
3125 2752 2096
3175 2796 2130
3224 2840 2165
3273 2884 2199
3323 2928 2233
3372 2972 2267
3422 3016 2302
3471 3060 2336
2931 2581 1962
2981 2624 1996
3030 2668 2030
3079 2712 2065
3129 2756 2099
3178 2800 2133
3227 2844 2167
3277 2888 2201
3326 2932 2236
3376 2976 2270
3425 3019 2304
3474 3063 2338
3524 3107 2373
3573 3151 2407
3622 3195 2441
3672 3239 2475
3132 2760 2101
3181 2804 2136
3231 2848 2170
3280 2891 2204
3330 2935 2238
3379 2979 2273
3428 3023 2307
3478 3067 2341
3527 3111 2375
3576 3155 2409
3626 3199 2444
3675 3242 2478
3725 3286 2512
3774 3330 2546
3823 3374 2580
3873 3418 2615
3333 2939 2241
3382 2983 2275
3432 3027 2309
3481 3071 2344
3530 3114 2378
3580 3158 2412
3629 3202 2446
3679 3246 2480
3728 3290 2515
3777 3334 2549
3827 3378 2583
3876 3422 2617
3925 3466 2652
3975 3509 2686
4024 3553 2720
4074 3597 2754
423 342 220
472 386 254
521 430 288
571 474 322
620 518 357
669 562 391
719 606 425
768 649 459
818 693 493
867 737 528
916 781 562
966 825 596
1015 869 630
1064 913 665
1114 957 699
1163 1001 733
623 521 359
673 565 393
722 609 428
772 653 462
821 697 496
870 741 530
920 785 564
969 829 599
1018 873 633
1068 916 667
1117 960 701
1167 1004 736
1216 1048 770
1265 1092 804
1315 1136 838
1364 1180 872
824 701 499
874 745 533
923 788 567
972 832 601
1022 876 636
1071 920 670
1121 964 704
1170 1008 738
1219 1052 772
1269 1096 807
1318 1139 841
1367 1183 875
1417 1227 909
1466 1271 943
1516 1315 978
1565 1359 1012
1025 880 638
1075 924 672
1124 968 707
1173 1011 741
1223 1055 775
1272 1099 809
1321 1143 843
1371 1187 878
1420 1231 912
1470 1275 946
1519 1319 980
1568 1363 1015
1618 1406 1049
1667 1450 1083
1716 1494 1117
1766 1538 1151
1226 1059 778
1275 1103 812
1325 1147 846
1374 1191 880
1424 1235 915
1473 1278 949
1522 1322 983
1572 1366 1017
1621 1410 1051
1670 1454 1086
1720 1498 1120
1769 1542 1154
1819 1586 1188
1868 1630 1222
1917 1673 1257
1967 1717 1291
1427 1238 917
1476 1282 951
1526 1326 986
1575 1370 1020
1624 1414 1054
1674 1458 1088
1723 1502 1122
1773 1545 1157
1822 1589 1191
1871 1633 1225
1921 1677 1259
1970 1721 1294
2019 1765 1328
2069 1809 1362
2118 1853 1396
2167 1896 1430
1628 1417 1057
1677 1461 1091
1727 1505 1125
1776 1549 1159
1825 1593 1193
1875 1637 1228
1924 1681 1262
1973 1725 1296
2023 1768 1330
2072 1812 1365
2122 1856 1399
2171 1900 1433
2220 1944 1467
2270 1988 1501
2319 2032 1536
2368 2076 1570
1829 1597 1196
1878 1640 1230
1927 1684 1265
1977 1728 1299
2026 1772 1333
2076 1816 1367
2125 1860 1401
2174 1904 1436
2224 1948 1470
2273 1992 1504
2322 2035 1538
2372 2079 1572
2421 2123 1607
2470 2167 1641
2520 2211 1675
2569 2255 1709
2030 1776 1336
2079 1820 1370
2128 1864 1404
2178 1907 1438
