vendor/animastage-standalone/lut/sepia.3dl
0 3 6 9 12 15
115 69 7
263 200 109
411 332 212
559 464 315
707 595 417
855 727 520
717 606 425
865 738 528
1013 870 630
1162 1001 733
1310 1133 836
1458 1265 938
1320 1144 843
1468 1276 946
1616 1407 1049
1764 1539 1151
1912 1671 1254
2060 1802 1357
1922 1681 1262
2071 1813 1365
2219 1945 1467
2367 2076 1570
2515 2208 1673
2663 2340 1775
2525 2219 1680
2673 2351 1783
2821 2482 1886
2969 2614 1988
3117 2746 2091
3266 2877 2194
3128 2757 2099
3276 2888 2201
3424 3020 2304
3572 3152 2407
3720 3283 2509
3868 3415 2612
423 342 220
571 474 322
719 606 425
867 737 528
1015 869 630
1163 1001 733
1025 880 638
1173 1011 741
1321 1143 843
1470 1275 946
1618 1406 1049
1766 1538 1151
1628 1417 1057
1776 1549 1159
1924 1681 1262
2072 1812 1365
2220 1944 1467
2368 2076 1570
2230 1955 1475
2379 2087 1578
2527 2218 1680
2675 2350 1783
2823 2482 1886
2971 2613 1988
2833 2493 1894
2981 2624 1996
3129 2756 2099
3277 2887 2201
3425 3019 2304
3574 3151 2407
3436 3030 2312
3584 3162 2415
3732 3293 2517
3880 3425 2620
4028 3557 2723
4095 3688 2825
731 616 433
879 747 535
1027 879 638
1175 1011 741
1323 1142 843
1471 1274 946
1333 1153 851
1481 1285 954
1629 1417 1057
1777 1548 1159
1926 1680 1262
2074 1812 1365
1936 1691 1270
2084 1823 1372
2232 1954 1475
2380 2086 1578
2528 2217 1680
2676 2349 1783
2538 2228 1688
2686 2360 1791
2835 2492 1894
2983 2623 1996
3131 2755 2099
3279 2887 2201
3141 2766 2107
3289 2898 2209
3437 3029 2312
3585 3161 2415
3733 3293 2517
3882 3424 2620
3744 3304 2525
3892 3435 2628
4040 3567 2730
4095 3699 2833
4095 3830 2936
4095 3962 3038
1039 889 646
1187 1021 749
1335 1153 851
1483 1284 954
1631 1416 1057
1779 1547 1159
1641 1427 1064
1789 1558 1167
1937 1690 1270
2085 1822 1372
2234 1953 1475
2382 2085 1578
2244 1964 1483
2392 2096 1586
2540 2228 1688
2688 2359 1791
2836 2491 1894
2984 2623 1996
2846 2502 1901
2994 2634 2004
3143 2765 2107
3291 2897 2209
3439 3029 2312
3587 3160 2415
3449 3039 2320
3597 3171 2422
3745 3303 2525
3893 3434 2628
4041 3566 2730
4095 3698 2833
4052 3577 2738
4095 3709 2841
4095 3840 2944
4095 3972 3046
4095 4095 3149
4095 4095 3252
1347 1163 859
1495 1294 962
1643 1426 1064
1791 1558 1167
1939 1689 1270
2087 1821 1372
1949 1700 1278
2097 1832 1380
2245 1964 1483
2393 2095 1586
2542 2227 1688
2690 2359 1791
2552 2238 1696
2700 2370 1799
2848 2501 1901
2996 2633 2004
3144 2764 2107
3292 2896 2209
3154 2775 2114
3302 2907 2217
3451 3039 2320
3599 3170 2422
3747 3302 2525
3895 3434 2628
3757 3313 2533
3905 3445 2636
4053 3576 2738
4095 3708 2841
4095 3840 2944
4095 3971 3046
4095 3851 2951
4095 3982 3054
4095 4095 3157
4095 4095 3259
4095 4095 3362
4095 4095 3465
1654 1436 1072
1803 1568 1175
1951 1700 1278
2099 1831 1380
2247 1963 1483
2395 2094 1586
2257 1974 1491
2405 2105 1593
2553 2237 1696
2701 2369 1799
2849 2500 1901
2998 2632 2004
2860 2511 1909
3008 2643 2012
3156 2775 2114
3304 2906 2217
3452 3038 2320
3600 3170 2422
3462 3049 2328
3610 3181 2430
3758 3312 2533
3907 3444 2636
4055 3575 2738
4095 3707 2841
4065 3586 2746
4095 3718 2849
4095 3850 2951
4095 3981 3054
4095 4095 3157
4095 4095 3259
4095 4095 3165
4095 4095 3267
4095 4095 3370
4095 4095 3472
4095 4095 3575
4095 4095 3678
