vendor/animastage-standalone/lut/teal-orange.3dl
0 3 6 9 12 15
0 0 123
0 0 1082
0 0 2040
0 0 2999
0 0 3958
0 0 4095
0 835 0
0 826 940
0 816 1899
0 806 2857
0 796 3816
0 787 4095
0 1712 0
0 1702 798
0 1692 1757
0 1683 2716
0 1673 3674
0 1663 4095
0 2588 0
0 2578 657
0 2569 1615
0 2559 2574
0 2550 3530
0 2543 4095
0 3495 0
0 3493 519
0 3490 1482
0 3487 2444
0 3484 3407
0 3481 4095
0 4095 0
0 4095 417
0 4095 1379
0 4095 2342
0 4095 3305
0 4095 4095
508 0 81
511 0 1039
513 0 1998
515 0 2957
517 0 3915
519 0 4095
530 807 0
532 797 898
535 787 1856
537 777 2815
539 768 3774
541 758 4095
552 1683 0
554 1673 756
556 1664 1715
558 1654 2673
561 1644 3632
563 1634 4095
574 2559 0
580 2551 612
591 2543 1566
602 2536 2519
609 2531 3479
612 2528 4095
632 3487 0
635 3484 489
639 3481 1451
643 3478 2414
647 3475 3377
651 3472 4095
670 4095 0
674 4095 386
678 4095 1349
682 4095 2312
686 4095 3274
690 4095 4095
1488 0 39
1490 0 997
1492 0 1956
1494 0 2915
1497 0 3873
1499 0 4095
1510 778 0
1512 768 856
1514 758 1814
1516 749 2773
1518 739 3732
1521 729 4095
1531 1654 0
1533 1645 714
1536 1635 1673
1538 1625 2631
1540 1615 3590
1542 1606 4095
1574 2536 0
1581 2531 561
1585 2528 1523
1589 2525 2486
1593 2523 3448
1597 2520 4095
1616 3478 0
1620 3475 458
1624 3472 1421
1628 3469 2384
1632 3467 3346
1635 3464 4095
1655 4095 0
1658 4095 356
1662 4095 1319
1666 4095 2281
1670 4095 3244
1674 4095 4095
2467 0 0
2470 0 955
2472 0 1914
2474 0 2873
2476 0 3831
2478 0 4095
2489 749 0
2491 740 814
2493 730 1772
2496 720 2731
2498 710 3690
2500 701 4095
2511 1626 0
2513 1616 672
2515 1606 1631
2517 1596 2589
2519 1587 3548
2525 1578 4095
2562 2526 0
2566 2523 530
2570 2520 1493
2574 2517 2455
2577 2514 3418
2581 2511 4095
2600 3470 0
2604 3467 428
2608 3464 1391
2612 3461 2353
2616 3458 3316
2620 3455 4095
2639 4095 0
2643 4095 326
2647 4095 1288
2651 4095 2251
2655 4095 3214
2658 4095 4095
3447 0 0
3449 0 913
3451 0 1872
3453 0 2830
3455 0 3789
3458 0 4095
3468 721 0
3471 711 771
3473 701 1730
3475 691 2689
3477 682 3647
3479 672 4095
3490 1597 0
3492 1587 630
3498 1578 1587
3509 1571 2540
3520 1563 3494
3527 1558 4095
3546 2517 0
3550 2514 500
3554 2511 1462
3558 2508 2425
3562 2505 3388
3566 2502 4095
3585 3461 0
3589 3458 397
3593 3455 1360
3597 3452 2323
3600 3449 3285
3604 3446 4095
3623 4095 0
3627 4095 295
3631 4095 1258
3635 4095 2221
3639 4095 3183
3643 4095 4095
4095 0 0
4095 0 871
4095 0 1830
4095 0 2788
4095 0 3747
4095 0 4095
4095 692 0
4095 682 729
4095 672 1688
4095 663 2647
4095 653 3605
4095 643 4095
4095 1571 0
4095 1564 576
4095 1559 1534
4095 1556 2497
4095 1553 3460
4095 1550 4095
4095 2508 0
4095 2505 469
4095 2503 1432
4095 2500 2395
4095 2497 3357
4095 2494 4095
4095 3452 0
4095 3449 367
4095 3446 1330
4095 3444 2292
4095 3441 3255
4095 3438 4095
4095 4095 0
4095 4095 265
4095 4095 1228
4095 4095 2190
4095 4095 3153
4095 4095 4095
