vendor/animastage-standalone/lut/teal-orange.3dl
0 1 2 3 4 5 6 7 8 9 10 11 12 13 14 15
0 0 123
0 0 442
0 0 762
0 0 1082
0 0 1401
0 0 1721
0 0 2040
0 0 2360
0 0 2679
0 0 2999
0 0 3318
0 0 3638
0 0 3958
0 0 4095
0 0 4095
0 0 4095
0 251 76
0 248 395
0 245 715
0 241 1034
0 238 1354
0 235 1673
0 232 1993
0 228 2313
0 225 2632
0 222 2952
0 219 3271
0 215 3591
0 212 3910
0 209 4095
0 206 4095
0 202 4095
0 543 28
0 540 348
0 537 668
0 534 987
0 530 1307
0 527 1626
0 524 1946
0 521 2265
0 517 2585
0 514 2904
0 511 3224
0 508 3544
0 504 3863
0 501 4095
0 498 4095
0 495 4095
0 835 0
0 832 301
0 829 620
0 826 940
0 822 1259
0 819 1579
0 816 1899
0 813 2218
0 809 2538
0 806 2857
0 803 3177
0 800 3496
0 796 3816
0 793 4095
0 790 4095
0 787 4095
0 1128 0
0 1124 254
0 1121 573
0 1118 893
0 1115 1212
0 1111 1532
0 1108 1851
0 1105 2171
0 1102 2490
0 1098 2810
0 1095 3130
0 1092 3449
0 1089 3769
0 1085 4088
0 1082 4095
0 1079 4095
0 1420 0
0 1416 206
0 1413 526
0 1410 845
0 1407 1165
0 1403 1485
0 1400 1804
0 1397 2124
0 1394 2443
0 1390 2763
0 1387 3082
0 1384 3402
0 1381 3721
0 1377 4041
0 1374 4095
0 1371 4095
0 1712 0
0 1709 159
0 1705 479
0 1702 798
0 1699 1118
0 1696 1437
0 1692 1757
0 1689 2076
0 1686 2396
0 1683 2716
0 1679 3035
0 1676 3355
0 1673 3674
0 1670 3994
0 1666 4095
0 1663 4095
0 2004 0
0 2001 112
0 1997 431
0 1994 751
0 1991 1071
0 1988 1390
0 1984 1710
0 1981 2029
0 1978 2349
0 1975 2668
0 1971 2988
0 1968 3307
0 1965 3627
0 1962 3947
0 1958 4095
0 1955 4095
0 2296 0
0 2293 65
0 2290 384
0 2286 704
0 2283 1023
0 2280 1343
0 2277 1662
0 2273 1982
0 2270 2302
0 2267 2621
0 2264 2941
0 2260 3260
0 2257 3580
0 2254 3899
0 2251 4095
0 2247 4095
0 2588 0
0 2585 17
0 2582 337
0 2578 657
0 2575 976
0 2572 1296
0 2569 1615
0 2565 1935
0 2562 2254
0 2559 2574
0 2556 2893
0 2553 3212
0 2550 3530
0 2548 3848
0 2545 4095
0 2543 4095
0 2880 0
0 2877 0
0 2875 287
0 2872 605
0 2870 923
0 2867 1241
0 2865 1559
0 2862 1877
0 2860 2195
0 2857 2513
0 2856 2833
0 2855 3154
0 2854 3475
0 2853 3796
0 2852 4095
0 2852 4095
0 3181 0
0 3180 0
0 3179 232
0 3178 553
0 3177 874
0 3176 1195
0 3175 1516
0 3174 1837
0 3173 2158
0 3172 2478
0 3171 2799
0 3170 3120
0 3169 3441
0 3168 3762
0 3167 4083
0 3166 4095
0 3495 0
0 3494 0
0 3494 198
0 3493 519
0 3492 840
0 3491 1161
0 3490 1482
0 3489 1803
0 3488 2123
0 3487 2444
0 3486 2765
0 3485 3086
0 3484 3407
0 3483 3728
0 3482 4049
0 3481 4095
0 3810 0
0 3809 0
0 3808 164
0 3807 485
0 3806 806
0 3805 1127
0 3804 1448
0 3803 1769
0 3802 2089
0 3801 2410
0 3800 2731
0 3799 3052
0 3798 3373
0 3797 3694
0 3796 4015
0 3795 4095
0 4095 0
0 4095 0
0 4095 130
0 4095 451
0 4095 772
0 4095 1093
0 4095 1414
0 4095 1734
0 4095 2055
0 4095 2376
0 4095 2697
0 4095 3018
0 4095 3339
0 4095 3660
0 4095 3981
0 4095 4095
0 4095 0
0 4095 0
0 4095 96
0 4095 417
0 4095 738
0 4095 1059
0 4095 1379
0 4095 1700
0 4095 2021
0 4095 2342
0 4095 2663
0 4095 2984
0 4095 3305
0 4095 3626
0 4095 3947
0 4095 4095
0 0 109
0 0 428
0 0 748
0 0 1067
0 0 1387
0 0 1707
0 0 2026
0 0 2346
0 0 2665
0 0 2985
0 0 3304
0 0 3624
0 0 3943
0 0 4095
0 0 4095
0 0 4095
0 242 62
0 238 381
0 235 701
0 232 1020
0 229 1340
0 225 1659
0 222 1979
0 219 2298
0 216 2618
0 212 2938
0 209 3257
0 206 3577
0 203 3896
0 199 4095
0 196 4095
0 193 4095
0 534 14
0 530 334
0 527 653
0 524 973
0 521 1293
0 517 1612
0 514 1932
0 511 2251
0 508 2571
0 504 2890
0 501 3210
0 498 3530
0 495 3849
0 491 4095
0 488 4095
0 485 4095
0 826 0
0 823 287
0 819 606
0 816 926
0 813 1245
0 810 1565
0 806 1884
0 803 2204
0 800 2524
0 797 2843
0 793 3163
0 790 3482
0 787 3802
0 784 4095
0 780 4095
0 777 4095
0 1118 0
0 1115 239
0 1111 559
0 1108 879
0 1105 1198
0 1102 1518
0 1098 1837
0 1095 2157
0 1092 2476
0 1089 2796
0 1085 3116
0 1082 3435
0 1079 3755
0 1076 4074
0 1072 4095
0 1069 4095
0 1410 0
0 1407 192
0 1404 512
0 1400 831
0 1397 1151
0 1394 1470
0 1391 1790
0 1387 2110
0 1384 2429
0 1381 2749
0 1378 3068
0 1374 3388
0 1371 3707
0 1368 4027
0 1365 4095
0 1361 4095
0 1702 0
0 1699 145
0 1696 465
0 1692 784
0 1689 1104
0 1686 1423
0 1683 1743
0 1679 2062
0 1676 2382
0 1673 2702
0 1670 3021
0 1666 3341
0 1663 3660
0 1660 3980
0 1657 4095
0 1653 4095
0 1994 0
0 1991 98
0 1988 417
0 1985 737
0 1981 1056
0 1978 1376
0 1975 1696
0 1972 2015
0 1968 2335
0 1965 2654
0 1962 2974
0 1959 3293
0 1955 3613
0 1952 3933
0 1949 4095
0 1946 4095
0 2286 0
0 2283 51
0 2280 370
0 2277 690
0 2273 1009
0 2270 1329
0 2267 1648
0 2264 1968
0 2260 2288
0 2257 2607
0 2254 2927
0 2251 3246
0 2247 3566
0 2244 3885
0 2241 4095
0 2238 4095
0 2579 0
0 2575 3
0 2572 323
0 2569 643
0 2566 962
0 2562 1282
0 2559 1601
0 2556 1921
0 2553 2240
0 2550 2558
0 2548 2875
0 2545 3193
0 2543 3511
0 2540 3829
0 2538 4095
0 2535 4095
0 2872 0
0 2870 0
0 2867 268
0 2865 586
0 2862 904
0 2860 1222
0 2857 1540
0 2856 1861
0 2855 2182
0 2855 2502
0 2854 2823
0 2853 3144
0 2852 3465
0 2851 3786
0 2850 4095
0 2849 4095
0 3178 0
0 3177 0
0 3176 222
0 3175 543
0 3174 864
0 3173 1185
0 3172 1506
0 3171 1827
0 3170 2147
0 3169 2468
0 3168 2789
0 3167 3110
0 3166 3431
0 3165 3752
0 3164 4073
0 3163 4095
0 3493 0
0 3492 0
0 3491 188
0 3490 509
0 3489 830
0 3488 1151
0 3487 1472
0 3486 1792
0 3485 2113
0 3484 2434
0 3483 2755
0 3482 3076
0 3481 3397
0 3480 3718
0 3479 4039
0 3478 4095
0 3807 0
0 3806 0
0 3805 154
0 3804 475
0 3803 796
0 3802 1117
0 3801 1438
0 3800 1758
0 3799 2079
0 3798 2400
1 3797 2721
2 3797 3042
4 3796 3363
5 3795 3684
6 3794 4005
8 3793 4095
1 4095 0
2 4095 0
4 4095 120
5 4095 441
6 4095 762
7 4095 1083
9 4095 1403
10 4095 1724
11 4095 2045
13 4095 2366
14 4095 2687
15 4095 3008
17 4095 3329
18 4095 3650
19 4095 3970
20 4095 4095
14 4095 0
15 4095 0
16 4095 86
18 4095 407
19 4095 728
20 4095 1048
22 4095 1369
23 4095 1690
24 4095 2011
26 4095 2332
27 4095 2653
28 4095 2974
29 4095 3295
31 4095 3616
32 4095 3936
33 4095 4095
182 0 95
183 0 414
183 0 734
184 0 1053
185 0 1373
186 0 1693
186 0 2012
187 0 2332
188 0 2651
189 0 2971
189 0 3290
190 0 3610
191 0 3929
191 0 4095
192 0 4095
193 0 4095
189 232 48
190 229 367
191 226 687
191 222 1006
192 219 1326
193 216 1645
194 213 1965
194 209 2284
195 206 2604
196 203 2924
197 200 3243
197 196 3563
198 193 3882
199 190 4095
199 187 4095
200 183 4095
196 524 0
197 521 320
198 518 639
199 514 959
199 511 1279
200 508 1598
201 505 1918
202 501 2237
202 498 2557
203 495 2876
204 492 3196
204 488 3515
205 485 3835
206 482 4095
207 479 4095
207 475 4095
204 816 0
204 813 273
205 810 592
206 807 912
207 803 1231
207 800 1551
208 797 1870
209 794 2190
210 790 2510
210 787 2829
211 784 3149
212 781 3468
212 777 3788
213 774 4095
214 771 4095
215 768 4095
211 1108 0
212 1105 225
212 1102 545
213 1099 865
214 1095 1184
215 1092 1504
215 1089 1823
216 1086 2143
217 1082 2462
217 1079 2782
218 1076 3101
219 1073 3421
220 1069 3741
220 1066 4060
221 1063 4095
222 1060 4095
218 1401 0
219 1397 178
220 1394 498
220 1391 817
221 1388 1137
222 1384 1456
223 1381 1776
223 1378 2096
224 1375 2415
225 1371 2735
225 1368 3054
226 1365 3374
227 1362 3693
228 1358 4013
228 1355 4095
229 1352 4095
225 1693 0
226 1689 131
227 1686 451
228 1683 770
228 1680 1090
229 1676 1409
230 1673 1729
230 1670 2048
231 1667 2368
232 1663 2687
233 1660 3007
233 1657 3327
234 1654 3646
235 1650 3966
236 1647 4095
236 1644 4095
233 1985 0
233 1982 84
234 1978 403
235 1975 723
236 1972 1042
236 1969 1362
237 1965 1682
238 1962 2001
238 1959 2321
239 1956 2640
240 1952 2960
241 1949 3279
241 1946 3599
242 1943 3918
243 1939 4095
244 1936 4095
240 2277 0
241 2274 37
241 2270 356
242 2267 676
243 2264 995
243 2261 1315
244 2257 1634
245 2254 1954
246 2251 2273
246 2248 2593
247 2244 2913
248 2241 3232
249 2238 3552
249 2235 3871
250 2231 4095
252 2228 4095
247 2569 0
248 2566 0
248 2563 309
249 2559 628
250 2556 948
252 2553 1267
255 2551 1585
259 2548 1903
263 2546 2221
267 2543 2538
270 2541 2856
274 2538 3174
278 2536 3492
282 2533 3810
283 2532 4095
284 2531 4095
270 2865 0
274 2863 0
278 2860 249
281 2858 567
283 2857 888
284 2856 1209
285 2855 1530
287 2854 1850
288 2853 2171
289 2852 2492
291 2851 2813
292 2850 3134
293 2849 3455
295 2848 3776
296 2847 4095
297 2846 4095
291 3175 0
292 3174 0
293 3173 212
294 3172 533
296 3171 854
297 3170 1175
298 3169 1496
300 3168 1816
301 3167 2137
302 3166 2458
304 3165 2779
305 3164 3100
306 3163 3421
307 3162 3742
309 3161 4063
310 3160 4095
303 3490 0
305 3489 0
306 3488 178
307 3487 499
309 3486 820
310 3485 1141
311 3484 1461
313 3483 1782
314 3482 2103
315 3481 2424
316 3480 2745
318 3479 3066
319 3478 3387
320 3477 3708
322 3476 4029
323 3475 4095
316 3804 0
318 3803 0
319 3802 144
320 3801 465
321 3800 786
323 3799 1106
324 3799 1427
325 3798 1748
327 3797 2069
328 3796 2390
329 3795 2711
331 3794 3032
332 3793 3353
333 3792 3674
334 3791 3994
336 3790 4095
329 4095 0
330 4095 0
332 4095 110
333 4095 431
334 4095 752
336 4095 1072
337 4095 1393
338 4095 1714
340 4095 2035
341 4095 2356
342 4095 2677
343 4095 2998
345 4095 3319
346 4095 3639
347 4095 3960
349 4095 4095
342 4095 0
343 4095 0
345 4095 76
346 4095 397
347 4095 717
348 4095 1038
350 4095 1359
351 4095 1680
352 4095 2001
354 4095 2322
355 4095 2643
356 4095 2964
358 4095 3285
359 4095 3605
360 4095 3926
361 4095 4095
508 0 81
509 0 400
510 0 720
511 0 1039
511 0 1359
512 0 1679
513 0 1998
514 0 2318
514 0 2637
515 0 2957
516 0 3276
517 0 3596
517 0 3915
518 0 4095
519 0 4095
519 0 4095
516 222 34
516 219 353
517 216 673
518 213 992
519 209 1312
519 206 1631
520 203 1951
521 200 2270
522 196 2590
522 193 2910
523 190 3229
524 187 3549
524 183 3868
525 180 4095
526 177 4095
527 174 4095
523 515 0
524 511 306
524 508 625
525 505 945
526 502 1265
527 498 1584
527 495 1904
528 492 2223
529 489 2543
530 485 2862
530 482 3182
531 479 3501
532 476 3821
532 472 4095
533 469 4095
534 466 4095
530 807 0
531 803 259
532 800 578
532 797 898
533 794 1217
534 790 1537
535 787 1856
535 784 2176
536 781 2496
537 777 2815
537 774 3135
538 771 3454
539 768 3774
540 764 4093
540 761 4095
541 758 4095
537 1099 0
538 1096 211
539 1092 531
540 1089 851
540 1086 1170
541 1083 1490
542 1079 1809
542 1076 2129
543 1073 2448
544 1070 2768
545 1066 3087
545 1063 3407
546 1060 3727
547 1057 4046
548 1053 4095
548 1050 4095
545 1391 0
545 1388 164
546 1384 484
547 1381 803
548 1378 1123
548 1375 1442
549 1371 1762
550 1368 2082
550 1365 2401
551 1362 2721
552 1358 3040
553 1355 3360
553 1352 3679
554 1349 3999
555 1345 4095
556 1342 4095
552 1683 0
553 1680 117
553 1677 437
554 1673 756
555 1670 1076
555 1667 1395
556 1664 1715
557 1660 2034
558 1657 2354
558 1654 2673
559 1651 2993
560 1647 3313
561 1644 3632
561 1641 3952
562 1638 4095
563 1634 4095
559 1975 0
560 1972 70
561 1969 389
561 1965 709
562 1962 1028
563 1959 1348
563 1956 1668
564 1952 1987
565 1949 2307
566 1946 2626
566 1943 2946
567 1939 3265
568 1936 3585
569 1933 3904
569 1930 4095
570 1926 4095
566 2267 0
567 2264 23
568 2261 342
568 2258 662
